; generated by PrusaSlicer 2.4.2+linux-x64-GTK2 on 2022-09-06 at 07:14:13 UTC

; 

; external perimeters extrusion width = 0.61mm
; perimeters extrusion width = 0.65mm
; infill extrusion width = 0.70mm
; solid infill extrusion width = 0.65mm
; top infill extrusion width = 0.60mm
; support material extrusion width = 0.55mm
; first layer extrusion width = 0.65mm

M73 P0 R24
M201 X9000 Y9000 Z500 E10000 ; sets maximum accelerations, mm/sec^2
M203 X500 Y500 Z12 E120 ; sets maximum feedrates, mm / sec
M204 P2000 R1500 T2000 ; sets acceleration (P, T) and retract acceleration (R), mm/sec^2
M205 X10.00 Y10.00 Z0.20 E2.50 ; sets the jerk limits, mm/sec
M205 S0 T0 ; sets the minimum extruding and travel feed rate, mm/sec
M107
;TYPE:Custom
M862.3 P "MK2S" ; printer model check
M862.1 P0.6 ; nozzle diameter check
M115 U3.2.3 ; tell printer latest fw version
G90 ; use absolute coordinates
M83 ; extruder relative mode
M204 S2000 T1500 ; MK2 firmware only supports the old M204 format
M104 S230 ; set extruder temp
M140 S85 ; set bed temp
M190 S85 ; wait for bed temp
M109 S230 ; wait for extruder temp
G28 W ; home all without mesh bed level
G80 ; mesh bed leveling
G1 Z0.2 F720
G1 Y-2 F1000 ; go outside print area
G92 E0
G1 X60 E9 F1000 ; intro line
G1 X100 E12.5 F1000 ; intro line
G92 E0
G21 ; set units to millimeters
G90 ; use absolute coordinates
M83 ; use relative distances for extrusion
M900 K0.04 ; Filament gcode LA 1.5
M900 K24 ; Filament gcode LA 1.0
M107
;LAYER_CHANGE
;Z:0.2
;HEIGHT:0.2
;BEFORE_LAYER_CHANGE
G92 E0.0
;0.2


G1 E-1 F2100
G1 Z.2 F720
;AFTER_LAYER_CHANGE
;0.2
G1 Z.4
G1 X100.074 Y83.388 F10800
G1 Z.2 F720
G1 E1 F2100
M204 S800
;TYPE:Skirt/Brim
;WIDTH:0.65
G1 F1200
G1 X101.656 Y82.234 E.09886
G1 X111.556 Y79.759 E.5151
G1 X112.188 Y79.681 E.03216
G1 X135.337 Y79.681 E1.16853
G1 X137.141 Y80.407 E.09816
G1 X142.121 Y85.181 E.34824
G1 X144.983 Y88.451 E.21933
G1 X145.355 Y89.01 E.03389
G1 X147.575 Y93.51 E.2533
G1 X147.844 Y94.663 E.05978
G1 X147.844 Y112.862 E.91867
G1 X147.568 Y114.029 E.06054
G1 X145.348 Y118.463 E.25031
G1 X144.983 Y119.009 E.03313
G1 X142.283 Y122.109 E.20752
G1 X141.143 Y122.869 E.06914
G1 X133.543 Y125.41 E.40451
G1 X132.717 Y125.544 E.04228
G1 X114.583 Y125.544 E.91535
G1 X102.251 Y125.369 E.62257
G1 X100.882 Y124.957 E.0722
G1 X99.935 Y123.884 E.0722
G1 X99.681 Y122.762 E.05809
G1 X99.681 Y84.763 E1.91811
G1 X100.049 Y83.475 E.06766
M204 S1000
; printing object Support_V3-Body.stl id:0 copy 0
;WIPE_START
M73 P1 R24
G1 F8640
G1 X101.656 Y82.234 E-.46876
G1 X103.678 Y81.729 E-.48124
;WIPE_END
G1 E-.05 F2100
G1 Z.4 F720
G1 X110.041 Y86.25 F10800
G1 Z.2 F720
G1 E1 F2100
M204 S800
;TYPE:Support material
G1 F1200
G1 X106.647 Y86.25 E.17133
G1 X106.17 Y86.726 E.034
G1 X106.17 Y90.4 E.18543
G1 X106.647 Y90.876 E.034
G1 X108.32 Y90.876 E.08448
G1 X108.796 Y90.4 E.034
G1 X108.796 Y88.876 E.07692
G1 X116.32 Y88.876 E.37979
G1 X116.783 Y88.413 E.03307
G1 X117.247 Y88.876 E.03307
G1 X120.488 Y88.876 E.16361
G1 X120.488 Y93.063 E.21136
G1 X113.063 Y93.063 E.37479
G1 X113.063 Y97.816 E.23995
G1 X112.17 Y97.816 E.04507
G1 X112.17 Y109.643 E.59697
G1 X113.063 Y109.643 E.04507
G1 X113.063 Y118.583 E.45131
G1 X108.796 Y118.583 E.21538
G1 X108.796 Y117.059 E.07692
G1 X108.32 Y116.583 E.034
G1 X106.647 Y116.583 E.08448
G1 X106.17 Y117.059 E.034
G1 X106.17 Y120.733 E.18543
G1 X106.647 Y121.209 E.034
G1 X110.041 Y121.209 E.17133
G1 X111.593 Y122.762 E.11083
G1 X102.289 Y122.762 E.46968
G1 X102.289 Y84.763 E1.91811
G1 X111.527 Y84.763 E.46635
G1 X110.105 Y86.186 E.10152
M204 S1000
;WIPE_START
G1 F8640
G1 X111.527 Y84.763 E-.46438
G1 X109.424 Y84.763 E-.48562
;WIPE_END
G1 E-.05 F2100
G1 Z.4 F720
G1 X109.647 Y107.967 F10800
G1 Z.2 F720
G1 E1 F2100
M204 S800
G1 F1200
G1 X109.197 Y108.417 E.03212
G1 X106.647 Y108.417 E.12872
G1 X106.17 Y108.893 E.034
G1 X106.17 Y114.533 E.28471
G1 X106.647 Y115.009 E.034
G1 X108.32 Y115.009 E.08448
G1 X108.796 Y114.533 E.034
G1 X108.796 Y112.043 E.12571
G1 X111.32 Y112.043 E.1274
G1 X111.796 Y111.566 E.034
G1 X111.796 Y108.443 E.15767
G1 X111.32 Y107.967 E.034
G1 X109.738 Y107.967 E.07988
M204 S1000
;WIPE_START
G1 F8640
G1 X111.32 Y107.967 E-.36539
G1 X111.796 Y108.443 E-.15552
G1 X111.796 Y110.301 E-.42909
;WIPE_END
G1 E-.05 F2100
G1 Z.4 F720
G1 X106.647 Y92.45 F10800
G1 Z.2 F720
G1 E1 F2100
M204 S800
G1 F1200
G1 X106.17 Y92.926 E.034
G1 X106.17 Y98.566 E.28471
G1 X106.647 Y99.043 E.034
G1 X109.197 Y99.043 E.12872
G1 X109.647 Y99.493 E.03212
G1 X111.32 Y99.493 E.08448
G1 X111.796 Y99.016 E.034
G1 X111.796 Y95.893 E.15767
G1 X111.32 Y95.417 E.034
G1 X108.796 Y95.417 E.1274
G1 X108.796 Y92.926 E.12571
G1 X108.32 Y92.45 E.034
G1 X106.738 Y92.45 E.07988
M204 S1000
G1 X119.604 Y92.79 F10800
M204 S800
G1 F1200
G1 X119.604 Y89.422 E.16999
G1 X118.929 Y89.422 E.03405
G1 X118.929 Y92.517 E.1562
G1 X118.255 Y92.517 E.03405
G1 X118.255 Y89.422 E.1562
G1 X117.58 Y89.422 E.03405
G1 X117.58 Y92.517 E.1562
G1 X116.906 Y92.517 E.03405
G1 X116.906 Y89.308 E.16199
G1 X116.783 Y89.185 E.00873
G1 X116.546 Y89.422 E.01691
G1 X116.231 Y89.422 E.01592
G1 X116.231 Y92.517 E.1562
G1 X115.557 Y92.517 E.03405
G1 X115.557 Y89.422 E.1562
G1 X114.882 Y89.422 E.03405
G1 X114.882 Y92.517 E.1562
G1 X114.207 Y92.517 E.03405
G1 X114.207 Y89.422 E.1562
G1 X113.533 Y89.422 E.03405
G1 X113.533 Y92.517 E.1562
G1 X112.858 Y92.517 E.03405
G1 X112.858 Y89.422 E.1562
G1 X112.184 Y89.422 E.03405
G1 X112.184 Y95.508 E.30719
G1 X111.546 Y94.87 E.04551
G1 X111.509 Y94.87 E.00187
G1 X111.509 Y89.422 E.27501
G1 X110.835 Y89.422 E.03405
M73 P2 R24
G1 X110.835 Y94.87 E.27501
G1 X110.16 Y94.87 E.03405
G1 X110.16 Y89.422 E.27501
G1 X109.486 Y89.422 E.03405
G1 X109.486 Y94.87 E.27501
G1 X109.343 Y94.87 E.00722
G1 X109.343 Y92.7 E.10956
G1 X108.811 Y92.168 E.03794
G1 X108.811 Y91.157 E.05103
G1 X108.546 Y91.422 E.01891
G1 X108.137 Y91.422 E.02068
G1 X108.137 Y91.904 E.02429
G1 X107.462 Y91.904 E.03405
G1 X107.462 Y91.422 E.02429
G1 X106.788 Y91.422 E.03405
G1 X106.788 Y91.904 E.02429
G1 X106.42 Y91.904 E.01854
G1 X106.113 Y92.211 E.02193
G1 X106.113 Y91.115 E.0553
G1 X105.624 Y90.626 E.03492
G1 X105.624 Y86.5 E.20828
G1 X106.113 Y86.011 E.03492
G1 X106.113 Y85.31 E.03538
G1 X105.439 Y85.31 E.03405
G1 X105.439 Y122.215 E1.86295
G1 X106.113 Y122.215 E.03405
M73 P2 R23
G1 X106.113 Y121.448 E.03871
G1 X106.42 Y121.756 E.02193
G1 X106.788 Y121.756 E.01854
G1 X106.788 Y122.215 E.02321
G1 X107.462 Y122.215 E.03405
G1 X107.462 Y121.756 E.02321
G1 X108.137 Y121.756 E.03405
G1 X108.137 Y122.215 E.02321
G1 X108.811 Y122.215 E.03405
G1 X108.811 Y121.756 E.02321
G1 X109.486 Y121.756 E.03405
G1 X109.486 Y122.215 E.02321
G1 X110.16 Y122.215 E.03405
G1 X110.16 Y121.715 E.02524
M204 S1000
;WIPE_START
G1 F8640
G1 X110.16 Y122.215 E-.11546
G1 X109.486 Y122.215 E-.15575
G1 X109.486 Y121.756 E-.10615
G1 X108.811 Y121.756 E-.15575
G1 X108.811 Y122.215 E-.10615
G1 X108.137 Y122.215 E-.15575
G1 X108.137 Y121.756 E-.10615
G1 X107.925 Y121.756 E-.04884
;WIPE_END
G1 E-.05 F2100
G1 Z.4 F720
G1 X112.184 Y118.31 F10800
G1 Z.2 F720
G1 E1 F2100
M204 S800
G1 F1200
G1 X112.184 Y111.951 E.32098
G1 X111.546 Y112.589 E.04551
G1 X111.509 Y112.589 E.00187
G1 X111.509 Y118.037 E.27501
G1 X110.835 Y118.037 E.03405
G1 X110.835 Y112.589 E.27501
G1 X110.16 Y112.589 E.03405
G1 X110.16 Y118.037 E.27501
G1 X109.486 Y118.037 E.03405
G1 X109.486 Y112.589 E.27501
G1 X109.343 Y112.589 E.00722
G1 X109.343 Y114.759 E.10956
G1 X108.811 Y115.291 E.03794
G1 X108.811 Y116.302 E.05103
G1 X108.546 Y116.037 E.01891
G1 X108.137 Y116.037 E.02068
G1 X108.137 Y115.556 E.02429
G1 X107.462 Y115.556 E.03405
G1 X107.462 Y116.037 E.02429
G1 X106.788 Y116.037 E.03405
G1 X106.788 Y115.556 E.02429
G1 X106.42 Y115.556 E.01854
G1 X106.113 Y115.248 E.02193
G1 X106.113 Y116.73 E.07481
M204 S1000
;WIPE_START
G1 F8640
G1 X106.113 Y115.248 E-.34218
G1 X106.42 Y115.556 E-.1003
G1 X106.788 Y115.556 E-.08483
G1 X106.788 Y116.037 E-.11112
G1 X107.462 Y116.037 E-.15575
G1 X107.462 Y115.556 E-.11112
G1 X107.656 Y115.556 E-.04469
;WIPE_END
G1 E-.05 F2100
G1 Z.4 F720
G1 X111.509 Y107.769 F10800
G1 Z.2 F720
G1 E1 F2100
M204 S800
G1 F1200
G1 X111.509 Y100.039 E.39023
G1 X110.835 Y100.039 E.03405
G1 X110.835 Y107.42 E.3726
G1 X110.16 Y107.42 E.03405
G1 X110.16 Y100.039 E.3726
G1 X109.486 Y100.039 E.03405
G1 X109.486 Y107.42 E.3726
G1 X109.42 Y107.42 E.00331
G1 X108.97 Y107.87 E.03212
G1 X108.811 Y107.87 E.00803
G1 X108.811 Y99.589 E.41803
G1 X108.137 Y99.589 E.03405
G1 X108.137 Y107.87 E.41803
G1 X107.462 Y107.87 E.03405
G1 X107.462 Y99.589 E.41803
G1 X106.788 Y99.589 E.03405
G1 X106.788 Y107.87 E.41803
G1 X106.42 Y107.87 E.01854
G1 X106.113 Y108.177 E.02193
G1 X106.113 Y98.895 E.46854
M204 S1000
;WIPE_START
G1 F8640
G1 X106.113 Y103.01 E-.95
;WIPE_END
G1 E-.05 F2100
G1 Z.4 F720
G1 X110.16 Y85.744 F10800
G1 Z.2 F720
G1 E1 F2100
M204 S800
G1 F1200
G1 X110.16 Y85.31 E.02191
G1 X109.486 Y85.31 E.03405
G1 X109.486 Y85.704 E.01988
G1 X108.811 Y85.704 E.03405
G1 X108.811 Y85.31 E.01988
G1 X108.137 Y85.31 E.03405
G1 X108.137 Y85.704 E.01988
G1 X107.462 Y85.704 E.03405
G1 X107.462 Y85.31 E.01988
G1 X106.788 Y85.31 E.03405
G1 X106.788 Y85.977 E.03367
M204 S1000
;WIPE_START
G1 F8640
G1 X106.788 Y85.31 E-.15399
G1 X107.462 Y85.31 E-.15575
G1 X107.462 Y85.704 E-.09091
G1 X108.137 Y85.704 E-.15575
G1 X108.137 Y85.31 E-.09091
G1 X108.811 Y85.31 E-.15575
G1 X108.811 Y85.704 E-.09091
G1 X109.054 Y85.704 E-.05601
;WIPE_END
G1 E-.05 F2100
G1 Z.4 F720
G1 X104.764 Y122.489 F10800
G1 Z.2 F720
G1 E1 F2100
M204 S800
G1 F1200
G1 X104.764 Y85.31 E1.87674
G1 X104.09 Y85.31 E.03405
M73 P3 R23
G1 X104.09 Y122.215 E1.86295
G1 X103.415 Y122.215 E.03405
G1 X103.415 Y85.037 E1.87674
M204 S1000
;WIPE_START
G1 F8640
G1 X103.415 Y89.151 E-.95
;WIPE_END
G1 E-.05 F2100
G1 Z.4 F720
G1 X120.488 Y82.289 F10800
G1 Z.2 F720
G1 E1 F2100
M204 S800
G1 F1200
G1 X120.488 Y86.25 E.19996
G1 X117.247 Y86.25 E.16361
G1 X116.783 Y86.713 E.03307
G1 X116.32 Y86.25 E.03307
G1 X112.188 Y86.25 E.20858
G1 X112.188 Y82.289 E.19997
G1 X120.397 Y82.289 E.41436
M204 S1000
G1 X119.604 Y85.977 F10800
M204 S800
G1 F1200
G1 X119.604 Y82.835 E.15859
G1 X118.929 Y82.835 E.03405
G1 X118.929 Y85.704 E.1448
G1 X118.255 Y85.704 E.03405
G1 X118.255 Y82.835 E.1448
G1 X117.58 Y82.835 E.03405
G1 X117.58 Y85.704 E.1448
G1 X117.02 Y85.704 E.02826
G1 X116.906 Y85.818 E.00818
G1 X116.906 Y82.835 E.15059
G1 X116.231 Y82.835 E.03405
G1 X116.231 Y85.704 E.1448
G1 X115.557 Y85.704 E.03405
G1 X115.557 Y82.835 E.1448
G1 X114.882 Y82.835 E.03405
G1 X114.882 Y85.704 E.1448
G1 X114.207 Y85.704 E.03405
G1 X114.207 Y82.835 E.1448
G1 X113.533 Y82.835 E.03405
G1 X113.533 Y85.704 E.1448
G1 X112.858 Y85.704 E.03405
G1 X112.858 Y82.562 E.15859
M204 S1000
;WIPE_START
G1 F8640
G1 X112.858 Y85.704 E-.72545
G1 X113.533 Y85.704 E-.15575
G1 X113.533 Y85.406 E-.0688
;WIPE_END
G1 E-.05 F2100
G1 Z.4 F720
G1 X130.98 Y88.876 F10800
G1 Z.2 F720
G1 E1 F2100
M204 S800
G1 F1200
G1 X135.337 Y88.876 E.21994
G1 X135.337 Y93.063 E.21136
G1 X124.563 Y93.063 E.54388
G1 X124.563 Y88.876 E.21136
G1 X130.053 Y88.876 E.27717
G1 X130.517 Y88.413 E.03307
G1 X130.916 Y88.812 E.02847
M204 S1000
G1 X134.443 Y92.79 F10800
M204 S800
G1 F1200
G1 X134.443 Y89.422 E.16999
G1 X133.769 Y89.422 E.03405
G1 X133.769 Y92.517 E.1562
G1 X133.094 Y92.517 E.03405
G1 X133.094 Y89.422 E.1562
G1 X132.42 Y89.422 E.03405
G1 X132.42 Y92.517 E.1562
G1 X131.745 Y92.517 E.03405
G1 X131.745 Y89.422 E.1562
G1 X131.071 Y89.422 E.03405
G1 X131.071 Y92.517 E.1562
G1 X130.396 Y92.517 E.03405
G1 X130.396 Y89.306 E.16208
G1 X130.28 Y89.422 E.00832
G1 X129.722 Y89.422 E.02817
G1 X129.722 Y92.517 E.1562
G1 X129.047 Y92.517 E.03405
G1 X129.047 Y89.422 E.1562
G1 X128.373 Y89.422 E.03405
G1 X128.373 Y92.517 E.1562
G1 X127.698 Y92.517 E.03405
G1 X127.698 Y89.422 E.1562
G1 X127.024 Y89.422 E.03405
G1 X127.024 Y92.517 E.1562
G1 X126.349 Y92.517 E.03405
G1 X126.349 Y89.422 E.1562
G1 X125.675 Y89.422 E.03405
G1 X125.675 Y92.79 E.16999
M204 S1000
;WIPE_START
G1 F8640
G1 X125.675 Y89.422 E-.77758
G1 X126.349 Y89.422 E-.15575
G1 X126.349 Y89.494 E-.01667
;WIPE_END
G1 E-.05 F2100
G1 Z.4 F720
G1 X135.337 Y86.25 F10800
G1 Z.2 F720
G1 E1 F2100
M204 S800
G1 F1200
G1 X130.98 Y86.25 E.21994
G1 X130.517 Y86.713 E.03307
G1 X130.053 Y86.25 E.03307
G1 X124.563 Y86.25 E.27717
G1 X124.563 Y82.289 E.19996
G1 X135.337 Y82.289 E.54388
G1 X135.337 Y86.159 E.19537
M204 S1000
M73 P4 R23
G1 X134.443 Y85.977 F10800
M204 S800
G1 F1200
G1 X134.443 Y82.835 E.15859
G1 X133.769 Y82.835 E.03405
G1 X133.769 Y85.704 E.1448
G1 X133.094 Y85.704 E.03405
G1 X133.094 Y82.835 E.1448
G1 X132.42 Y82.835 E.03405
G1 X132.42 Y85.704 E.1448
G1 X131.745 Y85.704 E.03405
G1 X131.745 Y82.835 E.1448
G1 X131.071 Y82.835 E.03405
G1 X131.071 Y85.704 E.1448
G1 X130.754 Y85.704 E.01601
G1 X130.517 Y85.94 E.01691
G1 X130.396 Y85.82 E.0086
G1 X130.396 Y82.835 E.15069
G1 X129.722 Y82.835 E.03405
G1 X129.722 Y85.704 E.1448
G1 X129.047 Y85.704 E.03405
G1 X129.047 Y82.835 E.1448
G1 X128.373 Y82.835 E.03405
G1 X128.373 Y85.704 E.1448
G1 X127.698 Y85.704 E.03405
G1 X127.698 Y82.835 E.1448
G1 X127.024 Y82.835 E.03405
G1 X127.024 Y85.704 E.1448
G1 X126.349 Y85.704 E.03405
G1 X126.349 Y82.835 E.1448
G1 X125.675 Y82.835 E.03405
G1 X125.675 Y85.977 E.15859
M204 S1000
;WIPE_START
G1 F8640
G1 X125.675 Y82.835 E-.72545
G1 X126.349 Y82.835 E-.15575
G1 X126.349 Y83.133 E-.0688
;WIPE_END
G1 E-.05 F2100
G1 Z.4 F720
G1 X137.304 Y95.417 F10800
G1 Z.2 F720
G1 E1 F2100
M204 S800
G1 F1200
G1 X135.98 Y95.417 E.06682
G1 X135.504 Y95.893 E.034
G1 X135.504 Y99.016 E.15767
G1 X135.98 Y99.493 E.034
G1 X137.653 Y99.493 E.08448
G1 X138.103 Y99.043 E.03212
G1 X140.653 Y99.043 E.12872
G1 X141.13 Y98.566 E.034
G1 X141.13 Y95.326 E.16359
G1 X141.18 Y95.376 E.00359
G1 X143.353 Y95.376 E.10972
G1 X143.83 Y94.9 E.034
G1 X143.83 Y94.663 E.01195
G1 X145.237 Y94.663 E.07102
G1 X145.237 Y112.862 E.91867
G1 X143.83 Y112.862 E.07102
G1 X143.83 Y112.559 E.01528
G1 X143.353 Y112.083 E.034
G1 X141.18 Y112.083 E.10972
G1 X141.13 Y112.133 E.00359
G1 X141.13 Y108.893 E.16359
G1 X140.653 Y108.417 E.034
G1 X138.103 Y108.417 E.12872
G1 X137.653 Y107.967 E.03212
G1 X135.98 Y107.967 E.08448
G1 X135.504 Y108.443 E.034
G1 X135.504 Y111.566 E.15767
G1 X135.98 Y112.043 E.034
G1 X137.304 Y112.043 E.06682
G1 X137.304 Y112.862 E.04137
G1 X131.987 Y112.862 E.26837
G1 X131.987 Y94.663 E.91867
G1 X137.304 Y94.663 E.26837
G1 X137.304 Y95.326 E.03344
M204 S1000
;WIPE_START
G1 F8640
G1 X137.304 Y94.663 E-.15298
G1 X133.852 Y94.663 E-.79702
;WIPE_END
G1 E-.05 F2100
G1 Z.4 F720
G1 X144.561 Y112.589 F10800
G1 Z.2 F720
G1 E1 F2100
M204 S800
G1 F1200
G1 X144.561 Y95.209 E.8773
G1 X144.293 Y95.209 E.01357
G1 X143.887 Y95.615 E.02897
G1 X143.887 Y111.844 E.81922
G1 X143.58 Y111.537 E.02193
G1 X143.212 Y111.537 E.01854
G1 X143.212 Y95.922 E.78821
G1 X142.538 Y95.922 E.03405
G1 X142.538 Y111.537 E.78821
G1 X141.863 Y111.537 E.03405
G1 X141.863 Y95.922 E.78821
G1 X141.676 Y95.922 E.00945
G1 X141.676 Y98.793 E.14489
G1 X141.189 Y99.28 E.03479
G1 X141.189 Y108.179 E.44923
G1 X140.88 Y107.87 E.02206
G1 X140.514 Y107.87 E.01845
G1 X140.514 Y99.589 E.41803
G1 X139.84 Y99.589 E.03405
G1 X139.84 Y107.87 E.41803
G1 X139.165 Y107.87 E.03405
G1 X139.165 Y99.589 E.41803
G1 X138.491 Y99.589 E.03405
M73 P5 R23
G1 X138.491 Y107.87 E.41803
G1 X138.33 Y107.87 E.00812
G1 X137.88 Y107.42 E.03212
G1 X137.816 Y107.42 E.00321
G1 X137.816 Y100.039 E.3726
G1 X137.142 Y100.039 E.03405
G1 X137.142 Y107.42 E.3726
G1 X136.467 Y107.42 E.03405
G1 X136.467 Y100.039 E.3726
G1 X135.793 Y100.039 E.03405
G1 X135.793 Y107.768 E.39014
M204 S1000
G1 X135.118 Y112.589 F10800
M204 S800
G1 F1200
G1 X135.118 Y95.209 E.8773
G1 X134.443 Y95.209 E.03405
G1 X134.443 Y112.316 E.86351
G1 X133.769 Y112.316 E.03405
G1 X133.769 Y95.209 E.86351
G1 X133.094 Y95.209 E.03405
G1 X133.094 Y112.589 E.8773
M204 S1000
;WIPE_START
G1 F8640
G1 X133.094 Y108.475 E-.95
;WIPE_END
G1 E-.05 F2100
G1 Z.4 F720
G1 X140.325 Y115.379 F10800
G1 Z.2 F720
G1 E1 F2100
M204 S800
;TYPE:Perimeter
G1 F1200
G1 X140.532 Y115.445 E.01095
G1 X141.115 Y115.495 E.02953
