; generated by PrusaSlicer 2.4.2+linux-x64-GTK2 on 2022-09-05 at 09:52:39 UTC

; 

; external perimeters extrusion width = 0.61mm
; perimeters extrusion width = 0.65mm
; infill extrusion width = 0.70mm
; solid infill extrusion width = 0.65mm
; top infill extrusion width = 0.60mm
; support material extrusion width = 0.55mm
; first layer extrusion width = 0.65mm

M73 P0 R38
M201 X9000 Y9000 Z500 E10000 ; sets maximum accelerations, mm/sec^2
M203 X500 Y500 Z12 E120 ; sets maximum feedrates, mm / sec
M204 P2000 R1500 T2000 ; sets acceleration (P, T) and retract acceleration (R), mm/sec^2
M205 X10.00 Y10.00 Z0.20 E2.50 ; sets the jerk limits, mm/sec
M205 S0 T0 ; sets the minimum extruding and travel feed rate, mm/sec
M107
;TYPE:Custom
M862.3 P "MK2S" ; printer model check
M862.1 P0.6 ; nozzle diameter check
M115 U3.2.3 ; tell printer latest fw version
G90 ; use absolute coordinates
M83 ; extruder relative mode
M204 S2000 T1500 ; MK2 firmware only supports the old M204 format
M104 S230 ; set extruder temp
M140 S85 ; set bed temp
M190 S85 ; wait for bed temp
M109 S230 ; wait for extruder temp
G28 W ; home all without mesh bed level
G80 ; mesh bed leveling
G1 Z0.2 F720
G1 Y-2 F1000 ; go outside print area
G92 E0
G1 X60 E9 F1000 ; intro line
G1 X100 E12.5 F1000 ; intro line
G92 E0
G21 ; set units to millimeters
G90 ; use absolute coordinates
M83 ; use relative distances for extrusion
M900 K0.04 ; Filament gcode LA 1.5
M900 K24 ; Filament gcode LA 1.0
M107
;LAYER_CHANGE
;Z:0.2
;HEIGHT:0.2
;BEFORE_LAYER_CHANGE
G92 E0.0
;0.2


G1 E-1 F2100
G1 Z.2 F720
;AFTER_LAYER_CHANGE
;0.2
G1 Z.4
G1 X99.8 Y85.654 F10800
G1 Z.2 F720
G1 E1 F2100
M204 S800
;TYPE:Skirt/Brim
;WIDTH:0.65
G1 F1200
G1 X100.849 Y84.697 E.07165
G1 X110.877 Y79.683 E.56597
G1 X112.043 Y79.408 E.06047
G1 X135.45 Y79.408 E1.18153
G1 X137.317 Y80.196 E.10232
G1 X142.234 Y85.244 E.35572
G1 X144.937 Y88.355 E.20805
G1 X147.753 Y93.277 E.28624
G1 X148.085 Y94.55 E.06642
G1 X148.085 Y112.943 E.92842
G1 X147.749 Y114.223 E.06683
G1 X145.238 Y118.677 E.25809
G1 X142.337 Y122.104 E.22664
G1 X141.203 Y122.865 E.06894
G1 X133.703 Y125.406 E.39973
G1 X132.867 Y125.544 E.0428
G1 X114.533 Y125.544 E.92545
G1 X101.51 Y123.021 E.66964
G1 X100.236 Y122.37 E.0722
G1 X99.408 Y120.464 E.10492
G1 X99.408 Y87.029 E1.68775
G1 X99.775 Y85.74 E.06766
M204 S1000
; printing object Support_V3-Body.stl id:0 copy 0
;WIPE_START
G1 F8640
G1 X100.849 Y84.697 E-.3456
G1 X103.19 Y83.527 E-.6044
;WIPE_END
G1 E-.05 F2100
G1 Z.4 F720
G1 X106.22 Y90.4 F10800
G1 Z.2 F720
G1 E1 F2100
M204 S800
;TYPE:Support material
G1 F1200
G1 X106.697 Y90.876 E.034
G1 X108.37 Y90.876 E.08448
G1 X108.846 Y90.4 E.034
G1 X108.846 Y88.876 E.07692
G1 X116.37 Y88.876 E.37979
G1 X116.783 Y88.463 E.0295
G1 X117.197 Y88.876 E.0295
G1 X122.914 Y88.876 E.28862
G1 X122.914 Y92.886 E.20242
G1 X112.886 Y92.886 E.50622
G1 X112.886 Y96.9 E.20263
G1 X111.846 Y96.9 E.05248
G1 X111.846 Y95.893 E.05085
G1 X111.37 Y95.417 E.034
G1 X108.846 Y95.417 E.1274
G1 X108.846 Y92.726 E.13581
G1 X108.37 Y92.25 E.034
G1 X106.697 Y92.25 E.08448
G1 X106.22 Y92.726 E.034
G1 X106.22 Y98.566 E.29481
G1 X106.697 Y99.043 E.034
G1 X109.247 Y99.043 E.12872
G1 X109.697 Y99.493 E.03212
G1 X111.184 Y99.493 E.07507
G1 X111.184 Y107.967 E.42776
G1 X109.697 Y107.967 E.07507
G1 X109.247 Y108.417 E.03212
G1 X106.697 Y108.417 E.12872
G1 X106.22 Y108.893 E.034
G1 X106.22 Y114.733 E.29481
G1 X106.697 Y115.209 E.034
G1 X108.37 Y115.209 E.08448
G1 X108.846 Y114.733 E.034
G1 X108.846 Y112.043 E.13581
G1 X111.37 Y112.043 E.1274
G1 X111.846 Y111.566 E.034
G1 X111.846 Y110.593 E.04914
G1 X112.886 Y110.593 E.05248
G1 X112.886 Y118.583 E.40335
G1 X108.846 Y118.583 E.20392
G1 X108.846 Y117.059 E.07692
G1 X108.37 Y116.583 E.034
G1 X106.697 Y116.583 E.08448
G1 X106.22 Y117.059 E.034
G1 X106.22 Y120.464 E.17185
G1 X102.015 Y120.464 E.21228
G1 X102.015 Y87.029 E1.68775
G1 X106.22 Y87.029 E.21228
M73 P1 R37
G1 X106.22 Y90.309 E.16555
M204 S1000
;WIPE_START
G1 F8640
G1 X106.22 Y87.029 E-.75725
G1 X105.386 Y87.029 E-.19275
;WIPE_END
G1 E-.05 F2100
G1 Z.4 F720
G1 X122.302 Y92.613 F10800
G1 Z.2 F720
G1 E1 F2100
M204 S800
G1 F1200
G1 X122.302 Y89.422 E.16105
G1 X121.627 Y89.422 E.03405
G1 X121.627 Y92.34 E.14726
G1 X120.953 Y92.34 E.03405
G1 X120.953 Y89.422 E.14726
G1 X120.278 Y89.422 E.03405
G1 X120.278 Y92.34 E.14726
G1 X119.604 Y92.34 E.03405
G1 X119.604 Y89.422 E.14726
G1 X118.929 Y89.422 E.03405
G1 X118.929 Y92.34 E.14726
G1 X118.255 Y92.34 E.03405
G1 X118.255 Y89.422 E.14726
G1 X117.58 Y89.422 E.03405
G1 X117.58 Y92.34 E.14726
G1 X116.906 Y92.34 E.03405
G1 X116.906 Y89.358 E.15053
G1 X116.783 Y89.235 E.00873
G1 X116.596 Y89.422 E.01334
G1 X116.231 Y89.422 E.01844
G1 X116.231 Y92.34 E.14726
G1 X115.557 Y92.34 E.03405
G1 X115.557 Y89.422 E.14726
G1 X114.882 Y89.422 E.03405
G1 X114.882 Y92.34 E.14726
G1 X114.207 Y92.34 E.03405
G1 X114.207 Y89.422 E.14726
G1 X113.533 Y89.422 E.03405
G1 X113.533 Y92.34 E.14726
G1 X112.858 Y92.34 E.03405
G1 X112.858 Y89.422 E.14726
G1 X112.184 Y89.422 E.03405
G1 X112.184 Y95.458 E.30466
G1 X111.596 Y94.87 E.04194
G1 X111.509 Y94.87 E.00439
G1 X111.509 Y89.422 E.27501
G1 X110.835 Y89.422 E.03405
G1 X110.835 Y94.87 E.27501
G1 X110.16 Y94.87 E.03405
G1 X110.16 Y89.422 E.27501
G1 X109.486 Y89.422 E.03405
G1 X109.486 Y94.87 E.27501
G1 X109.393 Y94.87 E.0047
G1 X109.393 Y92.5 E.11965
G1 X108.811 Y91.918 E.04151
G1 X108.811 Y91.207 E.03589
G1 X108.596 Y91.422 E.01534
G1 X108.137 Y91.422 E.02321
G1 X108.137 Y91.704 E.0142
G1 X107.462 Y91.704 E.03405
G1 X107.462 Y91.422 E.0142
G1 X106.788 Y91.422 E.03405
G1 X106.788 Y91.704 E.0142
G1 X106.47 Y91.704 E.01602
G1 X106.113 Y92.061 E.0255
G1 X106.113 Y91.065 E.05026
G1 X105.674 Y90.626 E.03135
G1 X105.674 Y87.575 E.15399
G1 X105.439 Y87.575 E.01188
G1 X105.439 Y119.917 E1.63259
G1 X104.764 Y119.917 E.03405
G1 X104.764 Y87.575 E1.63259
G1 X104.09 Y87.575 E.03405
G1 X104.09 Y119.917 E1.63259
G1 X103.415 Y119.917 E.03405
G1 X103.415 Y87.575 E1.63259
G1 X102.74 Y87.575 E.03405
G1 X102.74 Y120.191 E1.64638
M204 S1000
;WIPE_START
G1 F8640
G1 X102.74 Y116.076 E-.95
;WIPE_END
G1 E-.05 F2100
G1 Z.4 F720
G1 X112.184 Y118.31 F10800
G1 Z.2 F720
G1 E1 F2100
M204 S800
G1 F1200
G1 X112.184 Y112.001 E.31845
G1 X111.596 Y112.589 E.04194
G1 X111.509 Y112.589 E.00439
G1 X111.509 Y118.037 E.27501
G1 X110.835 Y118.037 E.03405
G1 X110.835 Y112.589 E.27501
G1 X110.16 Y112.589 E.03405
G1 X110.16 Y118.037 E.27501
G1 X109.486 Y118.037 E.03405
G1 X109.486 Y112.589 E.27501
G1 X109.393 Y112.589 E.0047
G1 X109.393 Y114.959 E.11965
G1 X108.811 Y115.541 E.04151
G1 X108.811 Y116.252 E.03589
G1 X108.596 Y116.037 E.01534
G1 X108.137 Y116.037 E.02321
G1 X108.137 Y115.756 E.0142
G1 X107.462 Y115.756 E.03405
G1 X107.462 Y116.037 E.0142
G1 X106.788 Y116.037 E.03405
G1 X106.788 Y115.756 E.0142
G1 X106.47 Y115.756 E.01602
G1 X106.113 Y115.398 E.0255
G1 X106.113 Y116.78 E.06976
M204 S1000
;WIPE_START
G1 F8640
G1 X106.113 Y115.398 E-.31909
G1 X106.47 Y115.756 E-.11663
G1 X106.788 Y115.756 E-.07328
G1 X106.788 Y116.037 E-.06494
G1 X107.462 Y116.037 E-.15575
G1 X107.462 Y115.756 E-.06494
G1 X108.135 Y115.756 E-.15536
;WIPE_END
G1 E-.05 F2100
G1 Z.4 F720
G1 X110.16 Y107.693 F10800
G1 Z.2 F720
G1 E1 F2100
M204 S800
G1 F1200
G1 X110.16 Y100.039 E.38639
G1 X109.486 Y100.039 E.03405
G1 X109.486 Y107.42 E.3726
G1 X109.02 Y107.87 E.03268
G1 X108.811 Y107.87 E.01055
G1 X108.811 Y99.589 E.41803
G1 X108.137 Y99.589 E.03405
G1 X108.137 Y107.87 E.41803
G1 X107.462 Y107.87 E.03405
G1 X107.462 Y99.589 E.41803
G1 X106.788 Y99.589 E.03405
G1 X106.788 Y107.87 E.41803
G1 X106.47 Y107.87 E.01602
G1 X106.113 Y108.227 E.0255
G1 X106.113 Y98.845 E.47359
M204 S1000
;WIPE_START
G1 F8640
G1 X106.113 Y102.96 E-.95
;WIPE_END
G1 E-.05 F2100
G1 Z.4 F720
G1 X111.775 Y98.081 F10800
G1 Z.2 F720
G1 E1 F2100
M204 S800
;TYPE:Support material interface
;WIDTH:0.55
G1 F1200
G1 X111.775 Y97.479 E.02541
G1 X112.087 Y97.479 E.01315
G1 X112.087 Y110.014 E.52854
G1 X112.465 Y110.014 E.01593
G1 X112.465 Y109.3 E.03013
M204 S1000
G1 X113.043 Y108.862 F10800
M204 S800
;TYPE:Support material
;WIDTH:0.65
G1 F1200
G1 X113.043 Y105.805 E.15435
G1 X116.101 Y105.805 E.15435
G1 X113.108 Y108.798 E.21369
M204 S1000
G1 X114.207 Y107.312 F10800
M204 S800
G1 F1200
G1 X114.207 Y106.078 E.06229
M204 S1000
;WIPE_START
G1 F8640
G1 X114.207 Y107.312 E-.28493
;WIPE_END
G1 E-.71507 F2100
G1 Z.4 F720
G1 X116.101 Y101.654 F10800
G1 Z.2 F720
M73 P2 R37
G1 E1 F2100
M204 S800
G1 F1200
G1 X113.043 Y101.654 E.15435
G1 X113.043 Y98.597 E.15435
G1 X116.037 Y101.59 E.21369
M204 S1000
G1 X114.207 Y101.381 F10800
M204 S800
G1 F1200
G1 X114.207 Y100.147 E.06229
M204 S1000
;WIPE_START
G1 F8640
G1 X114.207 Y101.381 E-.28493
;WIPE_END
G1 E-.71507 F2100
G1 Z.4 F720
G1 X122.914 Y86.25 F10800
G1 Z.2 F720
G1 E1 F2100
M204 S800
G1 F1200
G1 X117.197 Y86.25 E.28862
G1 X116.783 Y86.663 E.0295
G1 X116.37 Y86.25 E.0295
G1 X112.043 Y86.25 E.21841
G1 X112.043 Y82.015 E.21378
G1 X122.914 Y82.015 E.54876
G1 X122.914 Y86.159 E.20918
M204 S1000
G1 X122.302 Y85.977 F10800
M204 S800
G1 F1200
G1 X122.302 Y82.561 E.17241
G1 X121.627 Y82.561 E.03405
G1 X121.627 Y85.704 E.15862
G1 X120.953 Y85.704 E.03405
G1 X120.953 Y82.561 E.15862
G1 X120.278 Y82.561 E.03405
G1 X120.278 Y85.704 E.15862
G1 X119.604 Y85.704 E.03405
G1 X119.604 Y82.561 E.15862
G1 X118.929 Y82.561 E.03405
G1 X118.929 Y85.704 E.15862
G1 X118.255 Y85.704 E.03405
G1 X118.255 Y82.561 E.15862
G1 X117.58 Y82.561 E.03405
G1 X117.58 Y85.704 E.15862
G1 X116.97 Y85.704 E.03079
G1 X116.906 Y85.768 E.00462
G1 X116.906 Y82.561 E.16188
G1 X116.231 Y82.561 E.03405
G1 X116.231 Y85.704 E.15862
G1 X115.557 Y85.704 E.03405
G1 X115.557 Y82.561 E.15862
G1 X114.882 Y82.561 E.03405
G1 X114.882 Y85.704 E.15862
G1 X114.207 Y85.704 E.03405
G1 X114.207 Y82.561 E.15862
G1 X113.533 Y82.561 E.03405
G1 X113.533 Y85.704 E.15862
G1 X112.858 Y85.704 E.03405
G1 X112.858 Y82.288 E.17241
M204 S1000
;WIPE_START
G1 F8640
G1 X112.858 Y85.704 E-.78863
G1 X113.533 Y85.704 E-.15575
G1 X113.533 Y85.679 E-.00562
;WIPE_END
G1 E-.05 F2100
G1 Z.4 F720
G1 X131.03 Y88.876 F10800
G1 Z.2 F720
G1 E1 F2100
M204 S800
G1 F1200
G1 X135.45 Y88.876 E.22311
G1 X135.45 Y92.886 E.20242
G1 X124.579 Y92.886 E.54876
G1 X124.579 Y88.876 E.20242
G1 X130.203 Y88.876 E.28393
G1 X130.617 Y88.463 E.0295
G1 X130.966 Y88.812 E.0249
M204 S1000
G1 X134.443 Y92.613 F10800
M204 S800
G1 F1200
G1 X134.443 Y89.422 E.16105
G1 X133.769 Y89.422 E.03405
G1 X133.769 Y92.34 E.14726
G1 X133.094 Y92.34 E.03405
G1 X133.094 Y89.422 E.14726
G1 X132.42 Y89.422 E.03405
G1 X132.42 Y92.34 E.14726
G1 X131.745 Y92.34 E.03405
G1 X131.745 Y89.422 E.14726
G1 X131.071 Y89.422 E.03405
G1 X131.071 Y92.34 E.14726
G1 X130.396 Y92.34 E.03405
G1 X130.396 Y89.422 E.14726
G1 X129.722 Y89.422 E.03405
G1 X129.722 Y92.34 E.14726
G1 X129.047 Y92.34 E.03405
G1 X129.047 Y89.422 E.14726
G1 X128.373 Y89.422 E.03405
G1 X128.373 Y92.34 E.14726
G1 X127.698 Y92.34 E.03405
G1 X127.698 Y89.422 E.14726
G1 X127.024 Y89.422 E.03405
G1 X127.024 Y92.34 E.14726
G1 X126.349 Y92.34 E.03405
G1 X126.349 Y89.422 E.14726
G1 X125.675 Y89.422 E.03405
G1 X125.675 Y92.613 E.16105
M204 S1000
;WIPE_START
G1 F8640
G1 X125.675 Y89.422 E-.7367
G1 X126.349 Y89.422 E-.15575
G1 X126.349 Y89.672 E-.05755
;WIPE_END
G1 E-.05 F2100
G1 Z.4 F720
G1 X135.238 Y97.479 F10800
G1 Z.2 F720
G1 E1 F2100
M204 S800
;TYPE:Support material interface
;WIDTH:0.55
G1 F1200
G1 X135.028 Y97.479 E.00886
G1 X135.028 Y110.014 E.52854
G1 X135.492 Y110.014 E.01955
G1 X135.492 Y97.479 E.52854
M204 S1000
;WIPE_START
G1 F8640
G1 X135.492 Y101.593 E-.95
;WIPE_END
G1 E-.05 F2100
G1 Z.4 F720
G1 X135.45 Y86.25 F10800
G1 Z.2 F720
G1 E1 F2100
M204 S800
;TYPE:Support material
;WIDTH:0.65
G1 F1200
G1 X131.03 Y86.25 E.22311
G1 X130.617 Y86.663 E.0295
G1 X130.203 Y86.25 E.0295
G1 X124.579 Y86.25 E.28393
G1 X124.579 Y82.015 E.21378
G1 X135.45 Y82.015 E.54876
G1 X135.45 Y86.159 E.20918
M204 S1000
G1 X134.443 Y85.977 F10800
M204 S800
G1 F1200
G1 X134.443 Y82.561 E.17241
G1 X133.769 Y82.561 E.03405
G1 X133.769 Y85.704 E.15862
G1 X133.094 Y85.704 E.03405
G1 X133.094 Y82.561 E.15862
G1 X132.42 Y82.561 E.03405
G1 X132.42 Y85.704 E.15862
G1 X131.745 Y85.704 E.03405
G1 X131.745 Y82.561 E.15862
G1 X131.071 Y82.561 E.03405
G1 X131.071 Y85.704 E.15862
G1 X130.804 Y85.704 E.01349
G1 X130.617 Y85.89 E.01334
G1 X130.43 Y85.704 E.01334
G1 X130.396 Y85.704 E.00169
G1 X130.396 Y82.561 E.15862
G1 X129.722 Y82.561 E.03405
G1 X129.722 Y85.704 E.15862
G1 X129.047 Y85.704 E.03405
G1 X129.047 Y82.561 E.15862
G1 X128.373 Y82.561 E.03405
G1 X128.373 Y85.704 E.15862
G1 X127.698 Y85.704 E.03405
G1 X127.698 Y82.561 E.15862
G1 X127.024 Y82.561 E.03405
G1 X127.024 Y85.704 E.15862
G1 X126.349 Y85.704 E.03405
G1 X126.349 Y82.561 E.15862
G1 X125.675 Y82.561 E.03405
G1 X125.675 Y85.977 E.17241
M204 S1000
;WIPE_START
G1 F8640
G1 X125.675 Y82.561 E-.78863
G1 X126.349 Y82.561 E-.15575
G1 X126.349 Y82.586 E-.00562
;WIPE_END
G1 E-.05 F2100
G1 Z.4 F720
G1 X145.478 Y112.943 F10800
G1 Z.2 F720
G1 E1 F2100
M204 S800
G1 F1200
G1 X143.78 Y112.943 E.08573
G1 X143.78 Y112.559 E.01934
G1 X143.303 Y112.083 E.034
G1 X141.18 Y112.083 E.1072
G1 X141.18 Y108.893 E.16105
G1 X140.703 Y108.417 E.034
G1 X138.153 Y108.417 E.12872
G1 X138.114 Y108.377 E.00279
G1 X138.115 Y108.154 E.01126
G1 X137.891 Y108.154 E.01129
G1 X137.703 Y107.967 E.01342
G1 X136.216 Y107.967 E.07506
G1 X136.216 Y99.493 E.42776
G1 X137.703 Y99.493 E.07507
G1 X137.891 Y99.305 E.01339
G1 X138.114 Y99.306 E.01126
G1 X138.114 Y99.082 E.0113
G1 X138.153 Y99.043 E.0028
G1 X140.703 Y99.043 E.12873
G1 X141.18 Y98.566 E.034
G1 X141.18 Y95.376 E.16105
G1 X143.303 Y95.376 E.1072
G1 X143.78 Y94.9 E.034
G1 X143.78 Y94.55 E.01763
G1 X145.478 Y94.55 E.08573
G1 X145.478 Y112.852 E.92383
M204 S1000
G1 X144.561 Y112.669 F10800
M204 S800
G1 F1200
G1 X144.561 Y95.097 E.88705
G1 X144.326 Y95.097 E.01188
G1 X144.326 Y95.126 E.00148
G1 X143.887 Y95.565 E.03135
G1 X143.887 Y111.894 E.82426
G1 X143.53 Y111.537 E.0255
G1 X143.212 Y111.537 E.01602
G1 X143.212 Y95.922 E.78821
G1 X142.538 Y95.922 E.03405
M73 P3 R37
G1 X142.538 Y111.537 E.78821
G1 X141.863 Y111.537 E.03405
G1 X141.863 Y95.922 E.78821
G1 X141.726 Y95.922 E.00693
G1 X141.726 Y98.793 E.14489
G1 X141.189 Y99.33 E.03835
G1 X141.189 Y108.129 E.44418
G1 X140.93 Y107.87 E.01849
G1 X140.514 Y107.87 E.02097
G1 X140.514 Y99.589 E.41803
G1 X139.84 Y99.589 E.03405
G1 X139.84 Y107.87 E.41803
G1 X139.165 Y107.87 E.03405
G1 X139.165 Y99.589 E.41803
G1 X138.66 Y99.589 E.02548
G1 X138.66 Y99.854 E.01336
G1 X138.491 Y99.853 E.00857
G1 X138.491 Y107.608 E.39146
G1 X138.118 Y107.608 E.01883
G1 X137.93 Y107.42 E.01342
G1 X137.816 Y107.42 E.00573
G1 X137.816 Y100.039 E.3726
G1 X137.142 Y100.039 E.03405
G1 X137.142 Y107.693 E.38639
M204 S1000
;WIPE_START
G1 F8640
G1 X137.142 Y103.579 E-.95
;WIPE_END
G1 E-.05 F2100
G1 Z.4 F720
G1 X140.384 Y115.388 F10800
G1 Z.2 F720
G1 E1 F2100
M204 S800
;TYPE:Perimeter
G1 F1200
G1 X140.539 Y115.442 E.00825
G1 X141.095 Y115.489 E.02818
G1 X141.847 Y115.433 E.03807
G1 X141.841 Y116.271 E.04228
G1 X141.171 Y116.275 E.03385
G1 X140.602 Y116.348 E.02894
G1 X140.367 Y116.421 E.01242
G1 X140.423 Y116.093 E.0168
G1 X140.396 Y115.477 E.0311
M204 S1000
G1 X140.042 Y114.628 F10800
M204 S800
;TYPE:External perimeter
G1 F1200
G1 X140.665 Y114.843 E.03331
G1 X141.098 Y114.88 E.02193
G1 X141.913 Y114.819 E.04125
G1 X141.913 Y113.91 E.04593
G1 X141.953 Y113.419 E.02485
G1 X142.48 Y113.419 E.02659
G1 X142.52 Y113.91 E.02485
G1 X142.52 Y114.386 E.02403
G1 X142.455 Y115.384 E.05053
G1 X142.444 Y116.873 E.07517
G1 X141.211 Y116.882 E.06222
G1 X140.731 Y116.944 E.02445
G1 X140.042 Y117.156 E.03641
G1 X140.032 Y120.063 E.14671
G1 X131.108 Y120.071 E.45047
G1 X130.964 Y120.693 E.0322
G1 X130.932 Y121.073 E.01928
G1 X130.916 Y121.88 E.04075
G1 X131.853 Y121.884 E.04731
G1 X132.344 Y121.924 E.02488
G1 X132.344 Y122.45 E.02659
G1 X131.857 Y122.49 E.02465
G1 X130.868 Y122.466 E.04996
G1 X129.377 Y122.49 E.07526
G1 X128.889 Y122.45 E.02471
G1 X128.889 Y121.924 E.02659
G1 X129.381 Y121.884 E.02488
G1 X130.318 Y121.88 E.04731
