; generated by PrusaSlicer 2.4.2+linux-x64-GTK2 on 2022-09-06 at 06:54:16 UTC

; 

; external perimeters extrusion width = 0.61mm
; perimeters extrusion width = 0.65mm
; infill extrusion width = 0.70mm
; solid infill extrusion width = 0.65mm
; top infill extrusion width = 0.60mm
; first layer extrusion width = 0.65mm

M73 P0 R21
M201 X9000 Y9000 Z500 E10000 ; sets maximum accelerations, mm/sec^2
M203 X500 Y500 Z12 E120 ; sets maximum feedrates, mm / sec
M204 P2000 R1500 T2000 ; sets acceleration (P, T) and retract acceleration (R), mm/sec^2
M205 X10.00 Y10.00 Z0.20 E2.50 ; sets the jerk limits, mm/sec
M205 S0 T0 ; sets the minimum extruding and travel feed rate, mm/sec
M107
;TYPE:Custom
M862.3 P "MK2S" ; printer model check
M862.1 P0.6 ; nozzle diameter check
M115 U3.2.3 ; tell printer latest fw version
G90 ; use absolute coordinates
M83 ; extruder relative mode
M204 S2000 T1500 ; MK2 firmware only supports the old M204 format
M104 S230 ; set extruder temp
M140 S85 ; set bed temp
M190 S85 ; wait for bed temp
M109 S230 ; wait for extruder temp
G28 W ; home all without mesh bed level
G80 ; mesh bed leveling
G1 Z0.2 F720
G1 Y-2 F1000 ; go outside print area
G92 E0
G1 X60 E9 F1000 ; intro line
G1 X100 E12.5 F1000 ; intro line
G92 E0
G21 ; set units to millimeters
G90 ; use absolute coordinates
M83 ; use relative distances for extrusion
M900 K0.04 ; Filament gcode LA 1.5
M900 K24 ; Filament gcode LA 1.0
M107
;LAYER_CHANGE
;Z:0.2
;HEIGHT:0.2
;BEFORE_LAYER_CHANGE
G92 E0.0
;0.2


G1 E-1 F2100
G1 Z.2 F720
;AFTER_LAYER_CHANGE
;0.2
G1 Z.4
G1 X104.769 Y85.687 F10800
G1 Z.2 F720
G1 E1 F2100
M204 S800
;TYPE:Skirt/Brim
;WIDTH:0.65
G1 F1200
G1 X105.827 Y84.726 E.0722
G1 X106.983 Y84.456 E.05992
G1 X140.317 Y84.456 E1.68263
G1 X141.692 Y84.848 E.0722
G1 X142.283 Y85.351 E.03914
G1 X144.983 Y88.451 E.20752
G1 X145.624 Y90.163 E.09229
G1 X145.624 Y117.296 E1.36966
G1 X144.983 Y119.009 E.09229
G1 X142.283 Y122.109 E.20752
G1 X141.143 Y122.869 E.06914
G1 X133.543 Y125.41 E.40451
G1 X132.717 Y125.544 E.04228
G1 X114.583 Y125.544 E.91535
G1 X113.757 Y125.41 E.04228
G1 X106.157 Y122.869 E.40451
G1 X104.977 Y122.061 E.0722
G1 X104.376 Y120.396 E.08931
G1 X104.376 Y87.063 E1.68263
M73 P1 R21
G1 X104.744 Y85.774 E.06766
M204 S1000
; printing object Support_V3-Body.stl id:0 copy 0
;WIPE_START
M73 P1 R20
G1 F8640
G1 X105.827 Y84.726 E-.34808
G1 X106.983 Y84.456 E-.27408
G1 X108.403 Y84.456 E-.32784
;WIPE_END
G1 E-.05 F2100
G1 Z.4 F720
G1 X140.31 Y116.326 F10800
G1 Z.2 F720
G1 E1 F2100
M204 S800
;TYPE:Perimeter
G1 F1200
G1 X140.352 Y116.117 E.01075
G1 X140.325 Y115.379 E.03729
G1 X140.532 Y115.445 E.01095
G1 X141.115 Y115.495 E.02953
G1 X141.899 Y115.432 E.0397
G1 X141.892 Y116.17 E.03728
G1 X141.156 Y116.175 E.03716
G1 X140.576 Y116.247 E.02953
G1 X140.397 Y116.3 E.00942
M204 S1000
;WIPE_START
G1 F8640
G1 X140.352 Y116.117 E-.04358
G1 X140.325 Y115.379 E-.17055
G1 X140.532 Y115.445 E-.05008
G1 X141.115 Y115.495 E-.13508
G1 X141.899 Y115.432 E-.18161
G1 X141.892 Y116.17 E-.17052
G1 X141.156 Y116.175 E-.16999
G1 X141.033 Y116.191 E-.02859
;WIPE_END
G1 E-.05 F2100
G1 Z.4 F720
G1 X139.992 Y114.633 F10800
G1 Z.2 F720
G1 E1 F2100
M204 S800
;TYPE:External perimeter
G1 F1200
G1 X140.652 Y114.846 E.03504
G1 X141.116 Y114.885 E.02349
G1 X141.963 Y114.818 E.0429
G1 X141.963 Y113.91 E.04585
G1 X142.003 Y113.418 E.02487
G1 X142.531 Y113.418 E.02663
G1 X142.57 Y113.888 E.02377
G1 X142.57 Y114.352 E.02346
G1 X142.507 Y115.329 E.04939
G1 X142.494 Y116.773 E.07293
G1 X141.196 Y116.782 E.06556
G1 X140.7 Y116.843 E.0252
G1 X139.992 Y117.054 E.0373
G1 X139.984 Y120.062 E.15187
G1 X130.798 Y120.071 E.46371
G1 X130.765 Y121.735 E.084
G1 X131.476 Y121.848 E.03634
G1 X132.194 Y121.917 E.03644
G1 X132.194 Y122.45 E.02691
G1 X131.706 Y122.49 E.02472
G1 X130.718 Y122.475 E.0499
G1 X129.228 Y122.491 E.07518
G1 X128.739 Y122.45 E.02476
G1 X128.739 Y121.917 E.02691
G1 X129.458 Y121.848 E.03644
G1 X130.169 Y121.735 E.03634
G1 X130.135 Y120.071 E.084
G1 X117.165 Y120.071 E.65473
G1 X117.131 Y121.735 E.084
G1 X117.842 Y121.848 E.03634
G1 X118.561 Y121.917 E.03644
G1 X118.561 Y122.45 E.02691
G1 X118.073 Y122.49 E.02472
G1 X117.084 Y122.475 E.0499
G1 X115.595 Y122.491 E.07518
G1 X115.106 Y122.45 E.02476
G1 X115.106 Y121.917 E.02691
G1 X115.824 Y121.848 E.03644
G1 X116.535 Y121.735 E.03634
G1 X116.502 Y120.071 E.084
G1 X107.315 Y120.062 E.46374
G1 X107.308 Y118.303 E.08881
G1 X107.43 Y117.914 E.02059
G1 X107.546 Y117.914 E.00588
G1 X107.658 Y118.249 E.01786
G1 X107.658 Y119.721 E.07431
G1 X139.641 Y119.721 E1.61445
G1 X139.648 Y116.546 E.16028
G1 X139.744 Y116.063 E.02489
G1 X139.734 Y115.519 E.02744
G1 X139.642 Y115.042 E.02455
G1 X139.642 Y110.98 E.20502
G1 X138.877 Y110.776 E.03996
G1 X138.335 Y110.715 E.02751
G1 X136.802 Y110.71 E.07737
G1 X136.642 Y109.733 E.04998
G1 X136.653 Y109.269 E.0234
G1 X136.817 Y109.284 E.00827
G1 X136.989 Y109.269 E.00875
G1 X137.054 Y109.488 E.01156
G1 X137.675 Y109.682 E.03285
G1 X138.152 Y109.744 E.02427
G1 X139.829 Y109.75 E.08465
G1 X139.992 Y110.667 E.04702
G1 X139.992 Y114.543 E.19563
M204 S1000
G1 X139.874 Y115.221 F10800
;WIPE_START
G1 F8640
G1 X140.652 Y114.846 E-.16785
G1 X141.116 Y114.885 E-.10747
G1 X141.963 Y114.818 E-.19624
G1 X141.963 Y113.91 E-.20972
G1 X142.003 Y113.418 E-.11376
G1 X142.531 Y113.418 E-.12181
G1 X142.543 Y113.562 E-.03315
;WIPE_END
G1 E-.05 F2100
G1 Z.4 F720
G1 X140.651 Y115.846 F10800
G1 Z.2 F720
G1 E1 F2100
M204 S800
;TYPE:Gap fill
;WIDTH:0.197823
G1 F1200
G1 X140.895 Y115.841 E.00315
M204 S1000
M204 S800
;WIDTH:0.159372
G1 X141.139 Y115.836 E.00237
M204 S1000
G1 X141.146 Y115.834 F10800
M204 S800
;WIDTH:0.146854
G1 F1200
G1 X141.592 Y115.815 E.00386
M204 S1000
;WIPE_START
G1 F8640
G1 X141.146 Y115.834 E-.10307
;WIPE_END
G1 E-.89693 F2100
G1 Z.4 F720
G1 X139.628 Y110.352 F10800
G1 Z.2 F720
G1 E1 F2100
M204 S800
;WIDTH:0.570517
G1 F1200
G1 X139.308 Y110.31 E.01413
M204 S1000
M204 S800
;WIDTH:0.523404
G1 X138.989 Y110.267 E.01287
M204 S1000
M204 S800
;WIDTH:0.47629
G1 X138.957 Y110.264 E.00117
M204 S1000
M204 S800
;WIDTH:0.470377
G1 X138.665 Y110.247 E.0104
M204 S1000
M204 S800
;WIDTH:0.439146
G1 X138.373 Y110.231 E.00964
M204 S1000
M204 S800
;WIDTH:0.407914
G1 X138.353 Y110.23 E.00059
M204 S1000
M204 S800
;WIDTH:0.406911
G1 X138.131 Y110.229 E.00672
M204 S1000
M204 S800
;WIDTH:0.408342
G1 X138.109 Y110.228 E.00069
M204 S1000
M204 S800
;WIDTH:0.441336
G1 X137.846 Y110.211 E.00873
M204 S1000
M204 S800
;WIDTH:0.474328
G1 X137.583 Y110.193 E.00945
M204 S1000
M204 S800
;WIDTH:0.482357
G1 X137.545 Y110.189 E.00138
M204 S1000
M204 S800
;WIDTH:0.522062
G1 X137.278 Y110.148 E.01076
M204 S1000
M204 S800
;WIDTH:0.561765
G1 X137.011 Y110.107 E.01165
M204 S1000
;WIPE_START
G1 F8640
G1 X137.278 Y110.148 E-.06234
;WIPE_END
G1 E-.93766 F2100
G1 Z.4 F720
G1 X131.158 Y122.142 F10800
G1 Z.2 F720
G1 E1 F2100
M204 S800
;WIDTH:0.149397
G1 F1200
G1 X130.939 Y122.123 E.00195
M204 S1000
M204 S800
;WIDTH:0.177872
G1 X130.719 Y122.103 E.00247
M204 S1000
M204 S800
;WIDTH:0.178154
G1 X130.718 Y122.103 E.00002
M204 S1000
M204 S800
;WIDTH:0.220564
G1 X130.467 Y122.085 E.00372
M204 S1000
M204 S800
;WIDTH:0.220565
G1 X130.11 Y122.115 E.00529
M204 S1000
M204 S800
;WIDTH:0.170743
G1 X129.753 Y122.145 E.00381
M204 S1000
;WIPE_START
G1 F8640
G1 X130.11 Y122.115 E-.08269
;WIPE_END
G1 E-.91731 F2100
G1 Z.4 F720
G1 X117.525 Y122.142 F10800
G1 Z.2 F720
G1 E1 F2100
M204 S800
;WIDTH:0.149396
G1 F1200
G1 X117.306 Y122.123 E.00195
M204 S1000
M204 S800
;WIDTH:0.17787
G1 X117.086 Y122.103 E.00247
M204 S1000
M204 S800
;WIDTH:0.178154
G1 X117.084 Y122.103 E.00002
M204 S1000
M204 S800
;WIDTH:0.220564
G1 X116.833 Y122.085 E.00372
M204 S1000
M204 S800
;WIDTH:0.220563
G1 X116.477 Y122.115 E.00529
M204 S1000
M204 S800
;WIDTH:0.170742
G1 X116.12 Y122.145 E.00381
M204 S1000
;WIPE_START
G1 F8640
G1 X116.477 Y122.115 E-.08269
;WIPE_END
G1 E-.91731 F2100
G1 Z.4 F720
G1 X107.915 Y110.297 F10800
G1 Z.2 F720
G1 E1 F2100
M204 S800
;TYPE:Perimeter
;WIDTH:0.65
G1 F1200
G1 X107.915 Y110.162 E.00686
G1 X110.051 Y110.162 E.10781
G1 X110.051 Y110.297 E.00686
G1 X108.005 Y110.297 E.10327
M204 S1000
G1 X107.658 Y110.905 F10800
M204 S800
;TYPE:External perimeter
G1 F1200
G1 X107.658 Y113.871 E.14975
G1 X107.308 Y113.871 E.01767
G1 X107.308 Y109.555 E.2179
G1 X110.308 Y109.555 E.15144
G1 X110.308 Y109.105 E.02272
M73 P2 R20
G1 X110.658 Y109.105 E.01767
G1 X110.658 Y110.905 E.09086
G1 X107.748 Y110.905 E.14689
M204 S1000
G1 X107.068 Y111.012 F10800
;WIPE_START
G1 F8640
G1 X107.658 Y113.871 E-.68533
G1 X107.308 Y113.871 E-.08082
G1 X107.308 Y113.075 E-.18386
;WIPE_END
G1 E-.05 F2100
G1 Z.4 F720
G1 X140.325 Y92.08 F10800
G1 Z.2 F720
G1 E1 F2100
M204 S800
;TYPE:Perimeter
G1 F1200
G1 X140.352 Y91.342 E.03729
G1 X140.31 Y91.133 E.01075
G1 X140.576 Y91.212 E.01396
G1 X141.156 Y91.284 E.02953
G1 X141.892 Y91.289 E.03716
G1 X141.899 Y92.027 E.03728
G1 X141.115 Y91.965 E.0397
G1 X140.532 Y92.014 E.02953
G1 X140.411 Y92.053 E.0064
M204 S1000
;WIPE_START
G1 F8640
G1 X140.352 Y91.342 E-.16461
G1 X140.31 Y91.133 E-.04919
G1 X140.576 Y91.212 E-.06385
G1 X141.156 Y91.284 E-.13509
G1 X141.892 Y91.289 E-.16999
G1 X141.899 Y92.027 E-.17052
G1 X141.115 Y91.965 E-.18161
G1 X141.049 Y91.97 E-.01515
;WIPE_END
G1 E-.05 F2100
G1 Z.4 F720
G1 X139.992 Y90.405 F10800
G1 Z.2 F720
G1 E1 F2100
M204 S800
;TYPE:External perimeter
G1 F1200
G1 X140.7 Y90.616 E.0373
G1 X141.196 Y90.677 E.0252
G1 X142.494 Y90.686 E.06556
G1 X142.507 Y92.13 E.07293
G1 X142.57 Y93.107 E.04939
G1 X142.57 Y93.572 E.02346
G1 X142.531 Y94.041 E.02377
G1 X142.003 Y94.041 E.02663
G1 X141.963 Y93.55 E.02487
G1 X141.963 Y92.641 E.04585
G1 X141.116 Y92.574 E.0429
G1 X140.652 Y92.613 E.02349
G1 X139.992 Y92.826 E.03504
G1 X139.992 Y96.792 E.20017
G1 X139.829 Y97.709 E.04702
G1 X138.152 Y97.715 E.08465
G1 X137.675 Y97.777 E.02427
G1 X137.054 Y97.971 E.03285
G1 X136.989 Y98.191 E.01156
G1 X136.817 Y98.175 E.00875
G1 X136.653 Y98.19 E.00827
G1 X136.642 Y97.726 E.0234
G1 X136.802 Y96.749 E.04998
G1 X138.335 Y96.744 E.07737
G1 X138.877 Y96.683 E.02751
G1 X139.642 Y96.479 E.03996
G1 X139.642 Y92.418 E.20502
G1 X139.734 Y91.94 E.02455
G1 X139.744 Y91.397 E.02744
G1 X139.648 Y90.913 E.02489
G1 X139.641 Y87.738 E.16028
G1 X131.859 Y87.738 E.39282
G1 X131.807 Y87.724 E.00274
G1 X131.821 Y87.563 E.00816
G1 X131.807 Y87.402 E.00816
G1 X131.859 Y87.388 E.00274
G1 X139.984 Y87.397 E.41016
G1 X139.992 Y90.315 E.1473
M204 S1000
G1 X140.118 Y90.992 F10800
;WIPE_START
G1 F8640
G1 X140.7 Y90.616 E-.17766
G1 X141.196 Y90.677 E-.11529
G1 X142.494 Y90.686 E-.2999
G1 X142.507 Y92.13 E-.33359
G1 X142.513 Y92.232 E-.02355
;WIPE_END
G1 E-.05 F2100
G1 Z.4 F720
G1 X140.651 Y91.613 F10800
G1 Z.2 F720
G1 E1 F2100
M204 S800
;TYPE:Gap fill
;WIDTH:0.197824
G1 F1200
G1 X140.895 Y91.618 E.00315
M204 S1000
M204 S800
;WIDTH:0.159372
G1 X141.139 Y91.623 E.00237
M204 S1000
G1 X141.146 Y91.625 F10800
M204 S800
;WIDTH:0.146855
G1 F1200
G1 X141.592 Y91.644 E.00386
M204 S1000
;WIPE_START
G1 F8640
G1 X141.146 Y91.625 E-.10307
;WIPE_END
G1 E-.89693 F2100
G1 Z.4 F720
G1 X139.628 Y97.107 F10800
G1 Z.2 F720
G1 E1 F2100
M204 S800
;WIDTH:0.570516
G1 F1200
G1 X139.308 Y97.149 E.01413
M204 S1000
M204 S800
;WIDTH:0.523403
G1 X138.989 Y97.192 E.01287
M204 S1000
M204 S800
;WIDTH:0.47629
G1 X138.957 Y97.195 E.00117
M204 S1000
M204 S800
;WIDTH:0.470376
G1 X138.665 Y97.212 E.0104
M204 S1000
M204 S800
;WIDTH:0.439145
G1 X138.373 Y97.229 E.00964
M204 S1000
M204 S800
;WIDTH:0.407916
G1 X138.353 Y97.229 E.00059
M204 S1000
M204 S800
;WIDTH:0.406912
G1 X138.131 Y97.23 E.00672
M204 S1000
M204 S800
;WIDTH:0.408343
G1 X138.109 Y97.231 E.00069
M204 S1000
M204 S800
;WIDTH:0.441336
G1 X137.846 Y97.248 E.00873
M204 S1000
M204 S800
;WIDTH:0.474329
G1 X137.583 Y97.266 E.00945
M204 S1000
M204 S800
;WIDTH:0.482359
G1 X137.545 Y97.27 E.00138
M204 S1000
M204 S800
;WIDTH:0.522061
G1 X137.278 Y97.311 E.01076
M204 S1000
M204 S800
;WIDTH:0.561764
G1 X137.011 Y97.352 E.01165
M204 S1000
;WIPE_START
G1 F8640
G1 X137.278 Y97.311 E-.06234
;WIPE_END
G1 E-.93766 F2100
G1 Z.4 F720
G1 X107.915 Y97.162 F10800
G1 Z.2 F720
G1 E1 F2100
M204 S800
;TYPE:Perimeter
;WIDTH:0.65
G1 F1200
G1 X110.051 Y97.162 E.10781
G1 X110.051 Y97.297 E.00686
G1 X107.915 Y97.297 E.10781
G1 X107.915 Y97.252 E.00231
M204 S1000
G1 X107.658 Y96.555 F10800
M204 S800
;TYPE:External perimeter
G1 F1200
G1 X110.658 Y96.555 E.15144
G1 X110.658 Y98.355 E.09086
G1 X110.308 Y98.355 E.01767
G1 X110.308 Y97.905 E.02272
G1 X107.308 Y97.905 E.15144
G1 X107.308 Y93.588 E.2179
G1 X107.658 Y93.588 E.01767
G1 X107.658 Y96.465 E.14521
M204 S1000
G1 X107.682 Y97.154 F10800
;WIPE_START
G1 F8640
G1 X110.658 Y96.555 E-.69302
G1 X110.658 Y97.668 E-.25698
;WIPE_END
G1 E-.05 F2100
G1 Z.4 F720
G1 X107.658 Y89.738 F10800
G1 Z.2 F720
G1 E1 F2100
M204 S800
G1 F1200
G1 X107.308 Y89.738 E.01767
G1 X107.308 Y87.388 E.11863
G1 X115.658 Y87.388 E.4215
G1 X115.658 Y87.738 E.01767
G1 X107.658 Y87.738 E.40383
G1 X107.658 Y89.648 E.09641
M204 S1000
G1 X107.459 Y89.45 F10800
;WIPE_START
G1 F8640
G1 X107.308 Y89.738 E-.08345
G1 X107.308 Y87.388 E-.54262
G1 X108.711 Y87.388 E-.32393
;WIPE_END
G1 E-.05 F2100
G1 Z.4 F720
G1 X117.908 Y87.738 F10800
G1 Z.2 F720
G1 E1 F2100
M204 S800
G1 F1200
G1 X117.908 Y87.388 E.01767
G1 X129.392 Y87.388 E.57967
G1 X129.392 Y87.738 E.01767
G1 X117.998 Y87.738 E.57512
M204 S1000
G1 X118.08 Y87.433 F10800
; stop printing object Support_V3-Body.stl id:0 copy 0
;LAYER_CHANGE
;Z:0.55
;HEIGHT:0.35
;BEFORE_LAYER_CHANGE
G92 E0.0
;0.55


;WIPE_START
G1 F8640
G1 X117.908 Y87.388 E-.08345
G1 X121.661 Y87.388 E-.86655
;WIPE_END
G1 E-.05 F2100
G1 Z.4 F720
G1 Z.55
;AFTER_LAYER_CHANGE
;0.55
M104 S240 ; set temperature
M140 S90 ; set bed temperature
G1 Z.75
G1 X121.661 Y84.456 F10800
G1 Z.55 F720
G1 E1 F2100
;TYPE:Skirt/Brim
G1 F2385.552
G1 X140.317 Y84.456 E1.5606
G1 X141.692 Y84.848 E.11965
G1 X142.283 Y85.351 E.06486
G1 X144.983 Y88.451 E.3439
G1 X145.624 Y90.163 E.15295
G1 X145.624 Y117.296 E2.26981
G1 X144.983 Y119.009 E.15295
G1 X142.283 Y122.109 E.3439
G1 X141.143 Y122.869 E.11458
G1 X133.543 Y125.41 E.67036
G1 X132.717 Y125.544 E.07006
G1 X114.583 Y125.544 E1.51692
G1 X113.757 Y125.41 E.07006
M73 P3 R20
G1 X106.157 Y122.869 E.67036
G1 X104.977 Y122.061 E.11965
G1 X104.376 Y120.396 E.14801
G1 X104.376 Y87.063 E2.78846
G1 X104.769 Y85.687 E.11965
G1 X105.827 Y84.726 E.11965
G1 X106.983 Y84.456 E.0993
G1 X121.571 Y84.456 E1.22033
; printing object Support_V3-Body.stl id:0 copy 0
;WIPE_START
G1 F8640
G1 X125.686 Y84.456 E-.95
;WIPE_END
G1 E-.05 F2100
G1 Z.75 F720
G1 X110.123 Y110.089 F10800
G1 Z.55 F720
G1 E1 F2100
M204 S800
;TYPE:Perimeter
G1 F1500
G1 X110.123 Y110.37 E.02344
G1 X107.843 Y110.37 E.19075
G1 X107.843 Y110.089 E.02344
G1 X110.033 Y110.089 E.18322
M204 S1000
;WIPE_START
G1 F8640
G1 X110.123 Y110.37 E-.06796
G1 X107.843 Y110.37 E-.52651
G1 X107.843 Y110.089 E-.0647
G1 X109.103 Y110.089 E-.29083
;WIPE_END
G1 E-.05 F2100
G1 Z.75 F720
G1 X110.123 Y97.089 F10800
G1 Z.55 F720
G1 E1 F2100
M204 S800
G1 F1500
G1 X110.123 Y97.37 E.02344
G1 X107.843 Y97.37 E.19075
G1 X107.843 Y97.089 E.02344
G1 X110.033 Y97.089 E.18322
M204 S1000
G1 X110.678 Y96.535 F10800
M204 S800
;TYPE:External perimeter
;WIDTH:0.61
G1 F2400
G1 X110.678 Y98.98 E.1903
;TYPE:Overhang perimeter
;WIDTH:0.584808
;HEIGHT:0.584808
G1 F1500
G1 X110.678 Y108.48 E1.0609
;TYPE:External perimeter
;WIDTH:0.61
;HEIGHT:0.35
G1 F2400
G1 X110.678 Y110.925 E.1903
G1 X107.678 Y110.925 E.2335
G1 X107.678 Y113.891 E.23091
G1 X107.288 Y113.891 E.03036
G1 X107.288 Y109.535 E.33909
G1 X110.288 Y109.535 E.2335
G1 X110.288 Y108.48 E.08211
;TYPE:Overhang perimeter
;WIDTH:0.584808
;HEIGHT:0.584808
G1 F1500
G1 X110.288 Y98.98 E1.0609
;TYPE:External perimeter
;WIDTH:0.61
;HEIGHT:0.35
G1 F2400
G1 X110.288 Y97.925 E.08211
G1 X107.288 Y97.925 E.2335
G1 X107.288 Y93.568 E.33909
G1 X107.678 Y93.568 E.03036
G1 X107.678 Y96.535 E.23091
G1 X110.588 Y96.535 E.2265
M204 S1000
G1 X110.255 Y96.96 F10800
;WIPE_START
G1 F8640
G1 X110.678 Y98.98 E-.56494
;WIPE_END
G1 E-.43506 F2100
G1 Z.75 F720
G1 X107.678 Y89.758 F10800
G1 Z.55 F720
