; generated by PrusaSlicer 2.4.2+linux-x64-GTK2 on 2022-09-05 at 09:03:00 UTC

; 

; external perimeters extrusion width = 0.61mm
; perimeters extrusion width = 0.65mm
; infill extrusion width = 0.70mm
; solid infill extrusion width = 0.65mm
; top infill extrusion width = 0.60mm
; support material extrusion width = 0.55mm
; first layer extrusion width = 0.65mm

M73 P0 R49
M201 X9000 Y9000 Z500 E10000 ; sets maximum accelerations, mm/sec^2
M203 X500 Y500 Z12 E120 ; sets maximum feedrates, mm / sec
M204 P2000 R1500 T2000 ; sets acceleration (P, T) and retract acceleration (R), mm/sec^2
M205 X10.00 Y10.00 Z0.20 E2.50 ; sets the jerk limits, mm/sec
M205 S0 T0 ; sets the minimum extruding and travel feed rate, mm/sec
M107
;TYPE:Custom
M862.3 P "MK2S" ; printer model check
M862.1 P0.6 ; nozzle diameter check
M115 U3.2.3 ; tell printer latest fw version
G90 ; use absolute coordinates
M83 ; extruder relative mode
M204 S2000 T1500 ; MK2 firmware only supports the old M204 format
M104 S230 ; set extruder temp
M140 S85 ; set bed temp
M190 S85 ; wait for bed temp
M109 S230 ; wait for extruder temp
G28 W ; home all without mesh bed level
G80 ; mesh bed leveling
G1 Z0.2 F720
G1 Y-2 F1000 ; go outside print area
G92 E0
G1 X60 E9 F1000 ; intro line
G1 X100 E12.5 F1000 ; intro line
G92 E0
G21 ; set units to millimeters
G90 ; use absolute coordinates
M83 ; use relative distances for extrusion
M900 K0.04 ; Filament gcode LA 1.5
M900 K24 ; Filament gcode LA 1.0
M107
;LAYER_CHANGE
;Z:0.2
;HEIGHT:0.2
;BEFORE_LAYER_CHANGE
G92 E0.0
;0.2


G1 E-1 F2100
M73 P0 R48
G1 Z.2 F720
;AFTER_LAYER_CHANGE
;0.2
G1 Z.4
G1 X99.8 Y83.147 F10800
G1 Z.2 F720
G1 E1 F2100
M204 S800
;TYPE:Skirt/Brim
;WIDTH:0.65
G1 F1200
G1 X101.19 Y82.049 E.08943
G1 X108.712 Y79.542 E.4002
G1 X109.536 Y79.408 E.04216
G1 X132.943 Y79.408 E1.18153
G1 X134.168 Y79.714 E.06374
G1 X145.942 Y85.982 E.67332
G1 X146.972 Y86.975 E.0722
G1 X147.324 Y88.283 E.06841
G1 X147.324 Y115.617 E1.37976
G1 X146.931 Y116.992 E.0722
G1 X146.062 Y117.85 E.06163
G1 X130.962 Y126.95 E.88995
G1 X129.617 Y127.324 E.0705
G1 X114.283 Y127.324 E.77401
G1 X113.429 Y127.18 E.04371
G1 X101.161 Y122.927 E.65545
G1 X99.99 Y122.106 E.0722
G1 X99.408 Y120.464 E.08795
G1 X99.408 Y84.522 E1.8143
G1 X99.775 Y83.233 E.06766
M204 S1000
; printing object Support_LED.stl id:0 copy 0
;WIPE_START
G1 F8640
G1 X101.19 Y82.049 E-.42608
G1 X103.343 Y81.331 E-.52392
;WIPE_END
G1 E-.05 F2100
G1 Z.4 F720
G1 X108.305 Y97.192 F10800
G1 Z.2 F720
G1 E1 F2100
M204 S800
;TYPE:Support material interface
;WIDTH:0.55
G1 F1200
G1 X108.542 Y97.192 E.00999
G1 X108.554 Y97.22 E.0013
G1 X108.554 Y106.68 E.39889
G1 X108.542 Y106.708 E.0013
G1 X108.051 Y106.708 E.02068
G1 X108.051 Y97.192 E.40127
G1 X107.45 Y97.192 E.02534
G1 X107.45 Y106.708 E.40127
G1 X107.798 Y106.708 E.01465
M204 S1000
;WIPE_START
G1 F8640
G1 X107.45 Y106.708 E-.08021
G1 X107.45 Y102.942 E-.86979
;WIPE_END
G1 E-.05 F2100
G1 Z.4 F720
G1 X109.872 Y106.187 F10800
G1 Z.2 F720
G1 E1 F2100
M204 S800
;TYPE:Support material
;WIDTH:0.65
G1 F1200
G1 X109.133 Y106.187 E.03729
G1 X109.133 Y97.713 E.42776
G1 X109.872 Y97.713 E.03729
G1 X109.872 Y106.096 E.42316
M204 S1000
;WIPE_START
G1 F8640
G1 X109.872 Y101.982 E-.95
;WIPE_END
G1 E-.05 F2100
G1 Z.4 F720
G1 X112.465 Y106.793 F10800
G1 Z.2 F720
G1 E1 F2100
M204 S800
;TYPE:Support material interface
;WIDTH:0.55
G1 F1200
G1 X112.465 Y107.507 E.03013
G1 X112.087 Y107.507 E.01593
G1 X112.087 Y94.972 E.52854
G1 X112.465 Y94.972 E.01593
G1 X112.465 Y95.686 E.03013
M204 S1000
;WIPE_START
G1 F8640
G1 X112.465 Y94.972 E-.16498
G1 X112.087 Y94.972 E-.08725
G1 X112.087 Y97.994 E-.69777
;WIPE_END
G1 E-.05 F2100
G1 Z.4 F720
G1 X120.407 Y84.47 F10800
G1 Z.2 F720
G1 E1 F2100
M204 S800
;TYPE:Support material
;WIDTH:0.65
G1 F1200
G1 X116.947 Y84.47 E.17469
G1 X116.47 Y84.947 E.034
G1 X116.47 Y88.62 E.18543
G1 X116.947 Y89.096 E.034
G1 X120.407 Y89.096 E.17469
G1 X120.407 Y92.886 E.1913
G1 X112.886 Y92.886 E.37966
G1 X112.886 Y94.393 E.07608
G1 X112.096 Y94.393 E.03986
G1 X112.096 Y94.113 E.01412
G1 X111.62 Y93.637 E.034
G1 X109.096 Y93.637 E.1274
G1 X109.096 Y90.947 E.13581
G1 X108.62 Y90.47 E.034
G1 X104.947 Y90.47 E.18543
G1 X104.47 Y90.947 E.034
G1 X104.47 Y96.787 E.29481
G1 X104.947 Y97.263 E.034
G1 X106.872 Y97.263 E.09718
G1 X106.872 Y106.637 E.47319
G1 X104.947 Y106.637 E.09718
G1 X104.47 Y107.113 E.034
G1 X104.47 Y112.953 E.29481
G1 X104.947 Y113.43 E.034
G1 X108.62 Y113.43 E.18543
G1 X109.096 Y112.953 E.034
G1 X109.096 Y110.263 E.13581
G1 X111.62 Y110.263 E.1274
G1 X112.096 Y109.787 E.034
G1 X112.096 Y109.593 E.00979
G1 X112.886 Y109.593 E.03986
G1 X112.886 Y114.804 E.26304
G1 X104.947 Y114.804 E.40077
G1 X104.47 Y115.28 E.034
G1 X104.47 Y118.953 E.18543
G1 X104.947 Y119.43 E.034
G1 X107.492 Y119.43 E.12849
G1 X108.526 Y120.464 E.07383
G1 X102.015 Y120.464 E.32869
G1 X102.015 Y84.522 E1.8143
G1 X104.895 Y84.522 E.14538
G1 X104.47 Y84.947 E.03031
G1 X104.47 Y88.62 E.18543
G1 X104.947 Y89.096 E.034
G1 X114.62 Y89.096 E.48831
G1 X115.096 Y88.62 E.034
G1 X115.096 Y84.947 E.18543
G1 X114.62 Y84.47 E.034
G1 X109.536 Y84.47 E.25663
G1 X109.536 Y82.015 E.12395
G1 X120.407 Y82.015 E.54876
G1 X120.407 Y84.379 E.11935
M204 S1000
;WIPE_START
M73 P1 R48
G1 F8640
G1 X120.407 Y82.015 E-.54593
G1 X118.657 Y82.015 E-.40407
;WIPE_END
G1 E-.05 F2100
G1 Z.4 F720
G1 X119.604 Y92.613 F10800
G1 Z.2 F720
G1 E1 F2100
M204 S800
G1 F1200
G1 X119.604 Y89.643 E.14993
G1 X118.929 Y89.643 E.03405
G1 X118.929 Y92.34 E.13614
G1 X118.255 Y92.34 E.03405
G1 X118.255 Y89.643 E.13614
G1 X117.58 Y89.643 E.03405
G1 X117.58 Y92.34 E.13614
G1 X116.906 Y92.34 E.03405
G1 X116.906 Y89.643 E.13614
G1 X116.72 Y89.643 E.00936
G1 X116.231 Y89.154 E.03492
G1 X116.231 Y92.34 E.16083
G1 X115.557 Y92.34 E.03405
G1 X115.557 Y82.561 E.4936
G1 X116.231 Y82.561 E.03405
G1 X116.231 Y84.413 E.09348
G1 X116.72 Y83.924 E.03492
G1 X116.906 Y83.924 E.00936
G1 X116.906 Y82.561 E.06879
G1 X117.58 Y82.561 E.03405
G1 X117.58 Y83.924 E.06879
G1 X118.255 Y83.924 E.03405
G1 X118.255 Y82.561 E.06879
G1 X118.929 Y82.561 E.03405
G1 X118.929 Y83.924 E.06879
G1 X119.604 Y83.924 E.03405
G1 X119.604 Y82.288 E.08258
M204 S1000
;WIPE_START
G1 F8640
G1 X119.604 Y83.924 E-.37772
G1 X118.929 Y83.924 E-.15575
G1 X118.929 Y82.561 E-.31464
G1 X118.488 Y82.561 E-.10188
;WIPE_END
G1 E-.05 F2100
G1 Z.4 F720
G1 X114.882 Y92.613 F10800
G1 Z.2 F720
G1 E1 F2100
M204 S800
G1 F1200
G1 X114.882 Y89.607 E.15172
G1 X114.846 Y89.643 E.00254
G1 X114.207 Y89.643 E.03225
G1 X114.207 Y92.34 E.13614
G1 X113.533 Y92.34 E.03405
G1 X113.533 Y89.643 E.13614
G1 X112.858 Y89.643 E.03405
G1 X112.858 Y92.34 E.13614
G1 X112.34 Y92.34 E.02619
G1 X112.34 Y93.584 E.06281
G1 X112.184 Y93.428 E.01112
G1 X112.184 Y89.643 E.19108
G1 X111.509 Y89.643 E.03405
G1 X111.509 Y93.091 E.17405
G1 X110.835 Y93.091 E.03405
G1 X110.835 Y89.643 E.17405
G1 X110.16 Y89.643 E.03405
G1 X110.16 Y93.091 E.17405
G1 X109.643 Y93.091 E.02613
G1 X109.643 Y90.72 E.11965
G1 X109.486 Y90.563 E.0112
G1 X109.486 Y89.643 E.04647
G1 X108.811 Y89.643 E.03405
G1 X108.811 Y89.924 E.0142
G1 X108.137 Y89.924 E.03405
G1 X108.137 Y89.643 E.0142
G1 X107.462 Y89.643 E.03405
G1 X107.462 Y89.924 E.0142
G1 X106.788 Y89.924 E.03405
G1 X106.788 Y89.643 E.0142
G1 X106.113 Y89.643 E.03405
G1 X106.113 Y89.924 E.0142
G1 X105.439 Y89.924 E.03405
G1 X105.439 Y89.643 E.0142
G1 X104.764 Y89.643 E.03405
G1 X104.764 Y90.267 E.03149
M204 S1000
;WIPE_START
G1 F8640
G1 X104.764 Y89.643 E-.14404
G1 X105.439 Y89.643 E-.15575
G1 X105.439 Y89.924 E-.06494
G1 X106.113 Y89.924 E-.15575
G1 X106.113 Y89.643 E-.06494
G1 X106.788 Y89.643 E-.15575
G1 X106.788 Y89.924 E-.06494
G1 X107.411 Y89.924 E-.14387
;WIPE_END
G1 E-.05 F2100
G1 Z.4 F720
G1 X114.882 Y84.346 F10800
G1 Z.2 F720
G1 E1 F2100
M204 S800
G1 F1200
G1 X114.882 Y82.561 E.09009
G1 X114.207 Y82.561 E.03405
G1 X114.207 Y83.924 E.06879
G1 X113.533 Y83.924 E.03405
G1 X113.533 Y82.561 E.06879
G1 X112.858 Y82.561 E.03405
G1 X112.858 Y83.924 E.06879
G1 X112.184 Y83.924 E.03405
G1 X112.184 Y82.561 E.06879
G1 X111.509 Y82.561 E.03405
G1 X111.509 Y83.924 E.06879
G1 X110.835 Y83.924 E.03405
G1 X110.835 Y82.561 E.06879
G1 X110.16 Y82.561 E.03405
G1 X110.16 Y84.197 E.08258
M204 S1000
;WIPE_START
G1 F8640
G1 X110.16 Y82.561 E-.37772
G1 X110.835 Y82.561 E-.15575
G1 X110.835 Y83.924 E-.31464
G1 X111.276 Y83.924 E-.10188
;WIPE_END
G1 E-.05 F2100
G1 Z.4 F720
G1 X112.184 Y114.53 F10800
G1 Z.2 F720
G1 E1 F2100
M204 S800
G1 F1200
G1 X112.184 Y110.472 E.20487
G1 X111.846 Y110.809 E.02409
G1 X111.509 Y110.809 E.01701
G1 X111.509 Y114.257 E.17405
G1 X110.835 Y114.257 E.03405
G1 X110.835 Y110.809 E.17405
G1 X110.16 Y110.809 E.03405
G1 X110.16 Y114.257 E.17405
G1 X109.486 Y114.257 E.03405
G1 X109.486 Y113.337 E.04647
G1 X108.846 Y113.976 E.04564
G1 X108.811 Y113.976 E.00178
G1 X108.811 Y114.257 E.0142
G1 X108.137 Y114.257 E.03405
G1 X108.137 Y113.976 E.0142
G1 X107.462 Y113.976 E.03405
G1 X107.462 Y114.257 E.0142
G1 X106.788 Y114.257 E.03405
G1 X106.788 Y113.976 E.0142
G1 X106.113 Y113.976 E.03405
G1 X106.113 Y114.257 E.0142
G1 X105.439 Y114.257 E.03405
G1 X105.439 Y113.976 E.0142
G1 X104.764 Y113.976 E.03405
G1 X104.764 Y114.6 E.03149
M204 S1000
;WIPE_START
G1 F8640
G1 X104.764 Y113.976 E-.14404
G1 X105.439 Y113.976 E-.15575
G1 X105.439 Y114.257 E-.06494
G1 X106.113 Y114.257 E-.15575
G1 X106.113 Y113.976 E-.06494
G1 X106.788 Y113.976 E-.15575
G1 X106.788 Y114.257 E-.06494
G1 X107.411 Y114.257 E-.14387
;WIPE_END
G1 E-.05 F2100
G1 Z.4 F720
G1 X106.113 Y106.364 F10800
G1 Z.2 F720
G1 E1 F2100
M204 S800
G1 F1200
G1 X106.113 Y97.809 E.43182
G1 X105.439 Y97.809 E.03405
G1 X105.439 Y106.091 E.41803
G1 X104.764 Y106.091 E.03405
G1 X104.764 Y97.467 E.43532
M204 S1000
G1 X104.09 Y120.191 F10800
M204 S800
G1 F1200
G1 X104.09 Y89.012 E1.57387
G1 X103.924 Y88.846 E.01182
G1 X103.924 Y85.068 E.19071
G1 X103.415 Y85.068 E.02569
G1 X103.415 Y119.917 E1.75914
G1 X102.74 Y119.917 E.03405
G1 X102.74 Y84.795 E1.77293
M204 S1000
;WIPE_START
G1 F8640
G1 X102.74 Y88.909 E-.95
;WIPE_END
G1 E-.05 F2100
G1 Z.4 F720
G1 X132.943 Y84.47 F10800
G1 Z.2 F720
G1 E1 F2100
M204 S800
G1 F1200
G1 X129.28 Y84.47 E.18489
G1 X128.804 Y84.947 E.034
G1 X128.804 Y88.62 E.18543
G1 X129.28 Y89.096 E.034
G1 X132.943 Y89.096 E.18489
G1 X132.943 Y92.886 E.1913
G1 X122.072 Y92.886 E.54876
G1 X122.072 Y89.096 E.1913
G1 X126.953 Y89.096 E.24643
G1 X127.43 Y88.62 E.034
G1 X127.43 Y84.947 E.18543
G1 X126.953 Y84.47 E.034
G1 X122.072 Y84.47 E.24643
G1 X122.072 Y82.015 E.12395
G1 X132.943 Y82.015 E.54876
G1 X132.943 Y84.379 E.11935
M204 S1000
;WIPE_START
G1 F8640
G1 X132.943 Y82.015 E-.54594
G1 X131.193 Y82.015 E-.40406
;WIPE_END
G1 E-.05 F2100
G1 Z.4 F720
G1 X131.745 Y92.613 F10800
G1 Z.2 F720
G1 E1 F2100
M204 S800
G1 F1200
G1 X131.745 Y89.643 E.14993
G1 X131.071 Y89.643 E.03405
G1 X131.071 Y92.34 E.13614
G1 X130.396 Y92.34 E.03405
G1 X130.396 Y89.643 E.13614
G1 X129.722 Y89.643 E.03405
G1 X129.722 Y92.34 E.13614
G1 X129.047 Y92.34 E.03405
G1 X129.047 Y89.25 E.15596
M204 S1000
;WIPE_START
G1 F8640
G1 X129.047 Y92.34 E-.71341
G1 X129.722 Y92.34 E-.15575
G1 X129.722 Y91.989 E-.08084
;WIPE_END
G1 E-.05 F2100
G1 Z.4 F720
G1 X131.745 Y84.197 F10800
G1 Z.2 F720
G1 E1 F2100
M204 S800
G1 F1200
G1 X131.745 Y82.561 E.08258
G1 X131.071 Y82.561 E.03405
G1 X131.071 Y83.924 E.06879
G1 X130.396 Y83.924 E.03405
G1 X130.396 Y82.561 E.06879
G1 X129.722 Y82.561 E.03405
G1 X129.722 Y83.924 E.06879
G1 X129.047 Y83.93 E.03405
G1 X129.047 Y82.561 E.06911
G1 X128.373 Y82.561 E.03405
G1 X128.373 Y92.34 E.4936
G1 X127.698 Y92.34 E.03405
G1 X127.698 Y89.124 E.1623
G1 X127.18 Y89.643 E.03701
G1 X127.024 Y89.643 E.00788
G1 X127.024 Y92.34 E.13614
G1 X126.349 Y92.34 E.03405
G1 X126.349 Y89.643 E.13614
G1 X125.675 Y89.643 E.03405
G1 X125.675 Y92.34 E.13614
G1 X125 Y92.34 E.03405
G1 X125 Y89.643 E.13614
G1 X124.325 Y89.643 E.03405
G1 X124.325 Y92.34 E.13614
G1 X123.651 Y92.34 E.03405
G1 X123.651 Y89.643 E.13614
G1 X122.976 Y89.643 E.03405
G1 X122.976 Y92.613 E.14993
M204 S1000
;WIPE_START
G1 F8640
G1 X122.976 Y89.643 E-.6858
G1 X123.651 Y89.643 E-.15575
G1 X123.651 Y90.112 E-.10845
;WIPE_END
G1 E-.05 F2100
G1 Z.4 F720
G1 X127.698 Y84.829 F10800
G1 Z.2 F720
G1 E1 F2100
M204 S800
G1 F1200
G1 X127.698 Y82.561 E.11446
G1 X127.024 Y82.561 E.03405
G1 X127.024 Y83.924 E.06879
G1 X126.349 Y83.924 E.03405
G1 X126.349 Y82.561 E.06879
G1 X125.675 Y82.561 E.03405
G1 X125.675 Y83.924 E.06879
G1 X125 Y83.924 E.03405
G1 X125 Y82.561 E.06879
G1 X124.325 Y82.561 E.03405
G1 X124.325 Y83.924 E.06879
G1 X123.651 Y83.924 E.03405
G1 X123.651 Y82.561 E.06879
G1 X122.976 Y82.561 E.03405
G1 X122.976 Y84.197 E.08258
M204 S1000
;WIPE_START
G1 F8640
G1 X122.976 Y82.561 E-.37772
G1 X123.651 Y82.561 E-.15575
G1 X123.651 Y83.924 E-.31464
G1 X124.092 Y83.924 E-.10188
;WIPE_END
G1 E-.05 F2100
G1 Z.4 F720
G1 X140.904 Y94.12 F10800
G1 Z.2 F720
G1 E1 F2100
M204 S800
G1 F1200
G1 X141.38 Y94.596 E.034
G1 X142.971 Y94.596 E.08031
G1 X142.971 Y109.304 E.74241
G1 X141.38 Y109.304 E.08031
G1 X140.904 Y109.78 E.034
G1 X140.904 Y110.436 E.03309
G1 X139.43 Y110.436 E.07441
G1 X139.43 Y107.113 E.16771
G1 X138.953 Y106.637 E.034
G1 X135.607 Y106.637 E.16893
G1 X135.607 Y97.263 E.47319
G1 X138.953 Y97.263 E.16893
G1 X139.43 Y96.787 E.034
M73 P2 R48
G1 X139.43 Y92.096 E.23677
G1 X140.904 Y92.096 E.07441
G1 X140.904 Y94.029 E.09756
M204 S1000
G1 X141.863 Y109.03 F10800
M204 S800
G1 F1200
G1 X141.863 Y95.143 E.70104
G1 X141.189 Y95.143 E.03405
G1 X141.189 Y108.757 E.68725
G1 X141.154 Y108.757 E.00178
G1 X140.514 Y109.397 E.04564
G1 X140.514 Y94.503 E.7518
G1 X140.357 Y94.346 E.0112
G1 X140.357 Y92.643 E.086
G1 X139.976 Y92.643 E.01925
G1 X139.976 Y97.013 E.22061
G1 X139.84 Y97.149 E.00973
G1 X139.84 Y106.751 E.48466
G1 X139.165 Y106.091 E.04764
G1 X139.165 Y97.809 E.41803
G1 X138.491 Y97.809 E.03405
G1 X138.491 Y106.091 E.41803
G1 X137.816 Y106.091 E.03405
G1 X137.816 Y97.809 E.41803
G1 X137.142 Y97.809 E.03405
G1 X137.142 Y106.091 E.41803
G1 X136.467 Y106.091 E.03405
G1 X136.467 Y97.536 E.43182
M204 S1000
;WIPE_START
G1 F8640
G1 X136.467 Y101.65 E-.95
;WIPE_END
G1 E-.05 F2100
G1 Z.4 F720
G1 X134.767 Y106.187 F10800
G1 Z.2 F720
G1 E1 F2100
M204 S800
G1 F1200
G1 X132.607 Y106.187 E.10903
G1 X132.607 Y97.713 E.42776
M73 P2 R47
G1 X134.767 Y97.713 E.10903
G1 X134.767 Y106.096 E.42316
M204 S1000
G1 X133.769 Y105.914 F10800
M204 S800
G1 F1200
G1 X133.769 Y97.986 E.40018
M204 S1000
;WIPE_START
G1 F8640
G1 X133.769 Y102.1 E-.95
;WIPE_END
G1 E-.05 F2100
G1 Z.4 F720
G1 X136.749 Y108.582 F10800
G1 Z.2 F720
G1 E1 F2100
M204 S800
;TYPE:Perimeter
G1 F1200
G1 X137.485 Y108.582 E.03714
G1 X137.485 Y113.749 E.26081
G1 X142.849 Y113.749 E.27078
G1 X142.849 Y111.249 E.1262
G1 X143.585 Y111.249 E.03714
G1 X143.585 Y114.485 E.16334
G1 X137.485 Y114.485 E.30792
G1 X137.485 Y117.485 E.15144
G1 X128.485 Y117.485 E.45431
G1 X128.485 Y123.585 E.30792
G1 X125.249 Y123.585 E.16334
G1 X125.249 Y122.849 E.03714
G1 X127.749 Y122.849 E.1262
G1 X127.749 Y117.485 E.27078
G1 X116.151 Y117.485 E.58543
G1 X116.151 Y122.849 E.27078
G1 X118.651 Y122.849 E.1262
G1 X118.651 Y123.585 E.03714
G1 X115.415 Y123.585 E.16334
G1 X115.415 Y117.485 E.30792
G1 X106.415 Y117.485 E.45431
G1 X106.415 Y116.749 E.03714
G1 X136.749 Y116.749 E1.53119
G1 X136.749 Y108.672 E.4077
M204 S1000
;WIPE_START
G1 F8640
G1 X137.485 Y108.582 E-.17117
G1 X137.485 Y111.955 E-.77883
;WIPE_END
G1 E-.05 F2100
G1 Z.4 F720
G1 X134.092 Y107.975 F10800
G1 Z.2 F720
G1 E1 F2100
M204 S800
;TYPE:External perimeter
G1 F1200
G1 X138.092 Y107.975 E.20192
G1 X138.092 Y113.142 E.26081
G1 X142.242 Y113.142 E.20949
G1 X142.242 Y110.642 E.1262
G1 X144.192 Y110.642 E.09843
G1 X144.192 Y115.092 E.22463
G1 X138.092 Y115.092 E.30792
G1 X138.092 Y118.092 E.15144
G1 X129.092 Y118.092 E.45431
G1 X129.092 Y124.192 E.30792
G1 X124.642 Y124.192 E.22463
G1 X124.642 Y122.242 E.09843
G1 X127.142 Y122.242 E.1262
G1 X127.142 Y118.092 E.20949
G1 X116.758 Y118.092 E.52414
G1 X116.758 Y122.242 E.20949
G1 X119.258 Y122.242 E.1262
G1 X119.258 Y124.192 E.09843
G1 X114.808 Y124.192 E.22463
